;Generated with Cura_SteamEngine 15.01
; Default start code
G28 ; Home extruder
G1 Z15 F100
M107 ; Turn off fan
G90 ; Absolute positioning
M82 ; Extruder in absolute mode
M190 S50
; Activate all used extruder
M104 T0 S210
G92 E0 ; Reset extruder position
; Wait for all used extruders to reach temperature
M109 T0 S210
;Layer count: 60
;LAYER:0
M107
G0 F9000 X44.700 Y-51.200 Z0.300
;TYPE:SKIRT
G1 F1800 X51.200 Y-51.200 E0.32429
G1 X51.200 Y-44.700 E0.64857
G1 X53.200 Y-44.700 E0.74835
G1 X53.200 Y44.700 E5.20854
G1 X51.200 Y44.700 E5.30832
G1 X51.200 Y51.200 E5.63260
G1 X44.700 Y51.200 E5.95689
G1 X44.700 Y53.200 E6.05667
G1 X-44.700 Y53.200 E10.51685
G1 X-44.700 Y51.200 E10.61664
G1 X-51.200 Y51.200 E10.94092
G1 X-51.200 Y44.700 E11.26521
G1 X-53.200 Y44.700 E11.36499
G1 X-53.200 Y-44.700 E15.82517
G1 X-51.200 Y-44.700 E15.92495
G1 X-51.200 Y-51.200 E16.24924
G1 X-44.700 Y-51.200 E16.57353
G1 X-44.700 Y-53.200 E16.67331
G1 X44.700 Y-53.200 E21.13349
G1 X44.700 Y-51.200 E21.23327
G1 F2400 E17.23327
G0 F9000 X40.900 Y-49.400
;TYPE:WALL-INNER
G1 F2400 E21.23327
G1 F1800 X40.900 Y-47.400 E21.33305
G1 X47.400 Y-47.400 E21.65734
G1 X47.400 Y-40.900 E21.98162
G1 X49.400 Y-40.900 E22.08140
G1 X49.400 Y40.900 E26.16242
G1 X47.400 Y40.900 E26.26220
G1 X47.400 Y47.400 E26.58649
G1 X40.900 Y47.400 E26.91078
G1 X40.900 Y49.400 E27.01056
G1 X36.534 Y49.400 E27.22838
G1 X37.220 Y49.319 E27.26284
G1 X37.349 Y49.304 E27.26932
G1 X38.037 Y49.053 E27.30586
G1 X38.160 Y49.004 E27.31246
G1 X38.770 Y48.602 E27.34891
G1 X38.876 Y48.524 E27.35547
G1 X39.378 Y47.988 E27.39211
G1 X39.459 Y47.886 E27.39861
G1 X39.842 Y47.223 E27.43681
G1 X40.092 Y46.408 E27.47934
G1 X40.147 Y45.555 E27.52198
G1 X40.002 Y44.709 E27.56481
G1 X39.663 Y43.923 E27.60751
G1 X39.233 Y43.345 E27.64345
G1 X39.153 Y43.237 E27.65016
G1 X38.592 Y42.768 E27.68664
G1 X38.491 Y42.687 E27.69310
G1 X37.838 Y42.359 E27.72956
G1 X37.718 Y42.305 E27.73612
G1 X37.000 Y42.137 E27.77291
G1 X36.871 Y42.118 E27.77942
G1 X36.105 Y42.119 E27.81763
G1 X35.274 Y42.308 E27.86015
G1 X34.506 Y42.688 E27.90290
G1 X33.848 Y43.236 E27.94562
G1 X33.336 Y43.922 E27.98833
G1 X33.052 Y44.580 E28.02408
G1 X32.997 Y44.705 E28.03089
G1 X32.871 Y45.430 E28.06761
G1 X32.851 Y45.560 E28.07417
G1 X32.895 Y46.290 E28.11065
G1 X32.910 Y46.421 E28.11723
G1 X33.120 Y47.118 E28.15355
G1 X33.167 Y47.242 E28.16017
G1 X33.554 Y47.907 E28.19855
G1 X34.132 Y48.532 E28.24102
G1 X34.845 Y49.007 E28.28377
G1 X35.649 Y49.302 E28.32649
G1 X36.467 Y49.400 E28.36760
G1 X-36.466 Y49.400 E32.00624
G1 X-35.779 Y49.319 E32.04075
G1 X-35.650 Y49.304 E32.04723
G1 X-34.962 Y49.053 E32.08377
G1 X-34.839 Y49.004 E32.09037
G1 X-34.229 Y48.602 E32.12682
G1 X-34.123 Y48.524 E32.13338
G1 X-33.621 Y47.988 E32.17002
G1 X-33.540 Y47.886 E32.17652
G1 X-33.157 Y47.223 E32.21472
G1 X-32.907 Y46.408 E32.25725
G1 X-32.852 Y45.555 E32.29990
G1 X-32.997 Y44.709 E32.34272
G1 X-33.336 Y43.923 E32.38542
G1 X-33.766 Y43.345 E32.42136
G1 X-33.846 Y43.237 E32.42807
G1 X-34.407 Y42.768 E32.46455
G1 X-34.508 Y42.687 E32.47101
G1 X-35.161 Y42.359 E32.50747
G1 X-35.281 Y42.305 E32.51403
G1 X-35.999 Y42.137 E32.55082
G1 X-36.128 Y42.118 E32.55733
G1 X-36.894 Y42.119 E32.59554
G1 X-37.725 Y42.308 E32.63806
G1 X-38.493 Y42.688 E32.68081
G1 X-39.151 Y43.236 E32.72353
G1 X-39.663 Y43.922 E32.76624
G1 X-39.947 Y44.580 E32.80199
G1 X-40.002 Y44.705 E32.80880
G1 X-40.128 Y45.430 E32.84552
G1 X-40.148 Y45.560 E32.85208
G1 X-40.104 Y46.290 E32.88857
G1 X-40.089 Y46.421 E32.89514
G1 X-39.879 Y47.118 E32.93146
G1 X-39.832 Y47.242 E32.93808
G1 X-39.445 Y47.907 E32.97646
G1 X-38.867 Y48.532 E33.01893
G1 X-38.154 Y49.007 E33.06168
G1 X-37.350 Y49.302 E33.10440
G1 X-36.533 Y49.400 E33.14546
G1 X-40.900 Y49.400 E33.36333
G1 X-40.900 Y47.400 E33.46311
G1 X-47.400 Y47.400 E33.78739
G1 X-47.400 Y40.900 E34.11168
G1 X-49.400 Y40.900 E34.21146
G1 X-49.400 Y-40.900 E38.29248
G1 X-47.400 Y-40.900 E38.39226
G1 X-47.400 Y-47.400 E38.71655
G1 X-40.900 Y-47.400 E39.04083
G1 X-40.900 Y-49.400 E39.14061
G1 X-36.534 Y-49.400 E39.35843
G1 X-37.220 Y-49.319 E39.39290
G1 X-37.349 Y-49.304 E39.39937
G1 X-38.037 Y-49.053 E39.43591
G1 X-38.160 Y-49.004 E39.44252
G1 X-38.770 Y-48.602 E39.47896
G1 X-38.876 Y-48.524 E39.48553
G1 X-39.378 Y-47.988 E39.52217
G1 X-39.459 Y-47.886 E39.52867
G1 X-39.842 Y-47.223 E39.56687
G1 X-40.092 Y-46.408 E39.60940
G1 X-40.147 Y-45.555 E39.65204
G1 X-40.002 Y-44.709 E39.69486
G1 X-39.663 Y-43.923 E39.73757
G1 X-39.233 Y-43.345 E39.77351
G1 X-39.153 Y-43.237 E39.78022
G1 X-38.592 Y-42.768 E39.81670
G1 X-38.491 Y-42.687 E39.82316
G1 X-37.838 Y-42.359 E39.85961
G1 X-37.718 Y-42.305 E39.86618
G1 X-37.000 Y-42.137 E39.90297
G1 X-36.871 Y-42.118 E39.90947
G1 X-36.105 Y-42.119 E39.94769
G1 X-35.274 Y-42.308 E39.99021
G1 X-34.506 Y-42.688 E40.03295
G1 X-33.848 Y-43.236 E40.07568
G1 X-33.336 Y-43.922 E40.11838
G1 X-33.052 Y-44.580 E40.15414
G1 X-32.997 Y-44.705 E40.16095
G1 X-32.871 Y-45.430 E40.19766
G1 X-32.851 Y-45.560 E40.20423
G1 X-32.895 Y-46.290 E40.24071
G1 X-32.910 Y-46.421 E40.24729
G1 X-33.120 Y-47.118 E40.28361
G1 X-33.167 Y-47.242 E40.29022
G1 X-33.554 Y-47.907 E40.32861
G1 X-34.132 Y-48.532 E40.37108
G1 X-34.845 Y-49.007 E40.41382
G1 X-35.649 Y-49.302 E40.45655
G1 X-36.467 Y-49.400 E40.49765
G1 X36.466 Y-49.400 E44.13629
G1 X35.779 Y-49.319 E44.17081
G1 X35.650 Y-49.304 E44.17729
G1 X34.962 Y-49.053 E44.21382
G1 X34.839 Y-49.004 E44.22043
G1 X34.229 Y-48.602 E44.25688
G1 X34.123 Y-48.524 E44.26344
G1 X33.621 Y-47.988 E44.30008
G1 X33.540 Y-47.886 E44.30658
G1 X33.157 Y-47.223 E44.34478
G1 X32.907 Y-46.408 E44.38731
G1 X32.852 Y-45.555 E44.42995
G1 X32.997 Y-44.709 E44.47277
G1 X33.336 Y-43.923 E44.51548
G1 X33.766 Y-43.345 E44.55142
G1 X33.846 Y-43.237 E44.55813
G1 X34.407 Y-42.768 E44.59461
G1 X34.508 Y-42.687 E44.60107
G1 X35.161 Y-42.359 E44.63752
G1 X35.281 Y-42.305 E44.64409
G1 X35.999 Y-42.137 E44.68088
G1 X36.128 Y-42.118 E44.68738
G1 X36.894 Y-42.119 E44.72560
G1 X37.725 Y-42.308 E44.76812
G1 X38.493 Y-42.688 E44.81087
G1 X39.151 Y-43.236 E44.85359
G1 X39.663 Y-43.922 E44.89629
G1 X39.947 Y-44.580 E44.93205
G1 X40.002 Y-44.705 E44.93886
G1 X40.128 Y-45.430 E44.97557
G1 X40.148 Y-45.560 E44.98214
G1 X40.104 Y-46.290 E45.01862
G1 X40.089 Y-46.421 E45.02520
G1 X39.879 Y-47.118 E45.06152
G1 X39.832 Y-47.242 E45.06813
G1 X39.445 Y-47.907 E45.10652
G1 X38.867 Y-48.532 E45.14899
G1 X38.154 Y-49.007 E45.19173
G1 X37.350 Y-49.302 E45.23446
G1 X36.533 Y-49.400 E45.27551
G1 X40.900 Y-49.400 E45.49338
G0 F9000 X39.662 Y-43.923
G0 X38.492 Y-42.690
G0 X33.914 Y-37.939
G1 F1800 X32.344 Y-39.015 E45.58834
G1 X30.682 Y-39.941 E45.68326
G1 X28.941 Y-40.709 E45.77819
G1 X27.137 Y-41.314 E45.87312
G1 X25.284 Y-41.749 E45.96808
G1 X23.401 Y-42.012 E46.06294
G1 X21.514 Y-42.100 E46.15718
G1 X-21.514 Y-42.100 E48.30386
G1 X-23.401 Y-42.012 E48.39810
G1 X-25.284 Y-41.749 E48.49296
G1 X-27.137 Y-41.314 E48.58792
G1 X-28.941 Y-40.709 E48.68285
G1 X-30.682 Y-39.941 E48.77778
G1 X-32.344 Y-39.015 E48.87270
G1 X-33.914 Y-37.939 E48.96766
G1 X-35.378 Y-36.724 E49.06257
G1 X-36.724 Y-35.378 E49.15754
G1 X-37.939 Y-33.914 E49.25246
G1 X-39.015 Y-32.344 E49.34742
G1 X-39.941 Y-30.682 E49.44233
G1 X-40.709 Y-28.941 E49.53727
G1 X-41.314 Y-27.137 E49.63220
G1 X-41.749 Y-25.284 E49.72716
G1 X-42.012 Y-23.401 E49.82201
G1 X-42.100 Y-21.514 E49.91626
G1 X-42.100 Y21.514 E52.06293
G1 X-42.012 Y23.401 E52.15718
G1 X-41.749 Y25.284 E52.25203
G1 X-41.314 Y27.137 E52.34699
G1 X-40.709 Y28.941 E52.44192
G1 X-39.941 Y30.682 E52.53686
G1 X-39.015 Y32.344 E52.63177
G1 X-37.939 Y33.914 E52.72673
G1 X-36.724 Y35.378 E52.82165
G1 X-35.378 Y36.724 E52.91662
G1 X-33.914 Y37.939 E53.01153
G1 X-32.344 Y39.015 E53.10649
G1 X-30.682 Y39.941 E53.20141
G1 X-28.941 Y40.709 E53.29634
G1 X-27.137 Y41.314 E53.39127
G1 X-25.284 Y41.749 E53.48623
G1 X-23.401 Y42.012 E53.58109
G1 X-21.514 Y42.100 E53.67533
G1 X21.514 Y42.100 E55.82201
G1 X23.401 Y42.012 E55.91625
G1 X25.284 Y41.749 E56.01111
G1 X27.137 Y41.314 E56.10607
G1 X28.941 Y40.709 E56.20100
G1 X30.682 Y39.941 E56.29593
G1 X32.344 Y39.015 E56.39085
G1 X33.914 Y37.939 E56.48581
G1 X35.378 Y36.724 E56.58072
G1 X36.724 Y35.378 E56.67569
G1 X37.939 Y33.914 E56.77061
G1 X39.015 Y32.344 E56.86556
G1 X39.941 Y30.682 E56.96048
G1 X40.709 Y28.941 E57.05542
G1 X41.314 Y27.137 E57.15035
G1 X41.749 Y25.284 E57.24531
G1 X42.012 Y23.401 E57.34016
G1 X42.100 Y21.514 E57.43441
G1 X42.100 Y-21.514 E59.58108
G1 X42.012 Y-23.401 E59.67533
G1 X41.749 Y-25.284 E59.77018
G1 X41.314 Y-27.137 E59.86514
G1 X40.709 Y-28.941 E59.96007
G1 X39.941 Y-30.682 E60.05500
G1 X39.015 Y-32.344 E60.14992
G1 X37.939 Y-33.914 E60.24488
G1 X36.724 Y-35.378 E60.33980
G1 X35.378 Y-36.724 E60.43477
G1 X33.914 Y-37.939 E60.52968
G0 F9000 X37.939 Y-33.913
G0 X43.957 Y-26.542
G1 F1800 X43.543 Y-26.002 E60.56363
G1 X43.284 Y-25.374 E60.59752
G1 X43.194 Y-24.700 E60.63144
G1 X43.284 Y-24.025 E60.66542
G1 X43.543 Y-23.398 E60.69926
G1 X43.957 Y-22.857 E60.73325
G1 X44.497 Y-22.443 E60.76720
G1 X45.126 Y-22.183 E60.80115
G1 X45.799 Y-22.095 E60.83502
G1 X46.473 Y-22.183 E60.86893
G1 X47.101 Y-22.443 E60.90284
G1 X47.642 Y-22.857 E60.93682
G1 X48.056 Y-23.398 E60.97081
G1 X48.316 Y-24.026 E61.00472
G1 X48.404 Y-24.700 E61.03863
G1 X48.316 Y-25.373 E61.07249
G1 X48.056 Y-26.002 E61.10645
G1 X47.642 Y-26.542 E61.14040
G1 X47.101 Y-26.956 E61.17438
G1 X46.474 Y-27.215 E61.20823
G1 X45.799 Y-27.305 E61.24220
G1 X45.125 Y-27.215 E61.27613
G1 X44.497 Y-26.956 E61.31002
G1 X43.957 Y-26.542 E61.34397
G0 F9000 X43.195 Y-24.700
G0 X43.544 Y-23.400
G0 X45.799 Y22.095
G1 F1800 X45.126 Y22.183 E61.37783
G1 X44.497 Y22.443 E61.41178
G1 X43.957 Y22.857 E61.44573
G1 X43.543 Y23.398 E61.47972
G1 X43.284 Y24.025 E61.51356
G1 X43.194 Y24.700 E61.54754
G1 X43.284 Y25.374 E61.58146
G1 X43.543 Y26.002 E61.61535
G1 X43.957 Y26.542 E61.64930
G1 X44.497 Y26.956 E61.68325
G1 X45.125 Y27.215 E61.71714
G1 X45.799 Y27.305 E61.75106
G1 X46.474 Y27.215 E61.78504
G1 X47.101 Y26.956 E61.81888
G1 X47.642 Y26.542 E61.85287
G1 X48.056 Y26.002 E61.88681
G1 X48.316 Y25.373 E61.92077
G1 X48.404 Y24.700 E61.95463
G1 X48.316 Y24.026 E61.98854
G1 X48.056 Y23.398 E62.02245
G1 X47.642 Y22.857 E62.05644
G1 X47.101 Y22.443 E62.09043
G1 X46.473 Y22.183 E62.12434
G1 X45.799 Y22.095 E62.15825
G0 F9000 X42.012 Y23.400
G0 X40.708 Y28.941
G0 X37.939 Y33.913
G0 X33.913 Y37.939
G0 X28.941 Y40.708
G0 X23.400 Y42.012
G0 X-23.400 Y42.012
G0 X-28.941 Y40.708
G0 X-33.913 Y37.939
G0 X-37.939 Y33.913
G0 X-40.708 Y28.941
G0 X-43.194 Y24.700
G1 F1800 X-43.284 Y24.025 E62.19222
G1 X-43.543 Y23.398 E62.22607
G1 X-43.957 Y22.857 E62.26005
G1 X-44.497 Y22.443 E62.29400
G1 X-45.126 Y22.183 E62.32796
G1 X-45.799 Y22.095 E62.36182
G1 X-46.473 Y22.183 E62.39573
G1 X-47.101 Y22.443 E62.42964
G1 X-47.642 Y22.857 E62.46363
G1 X-48.056 Y23.398 E62.49762
G1 X-48.316 Y24.026 E62.53153
G1 X-48.404 Y24.700 E62.56544
G1 X-48.316 Y25.373 E62.59930
G1 X-48.056 Y26.002 E62.63325
G1 X-47.642 Y26.542 E62.66720
G1 X-47.101 Y26.956 E62.70119
G1 X-46.474 Y27.215 E62.73503
G1 X-45.799 Y27.305 E62.76901
G1 X-45.125 Y27.215 E62.80293
G1 X-44.497 Y26.956 E62.83682
G1 X-43.957 Y26.542 E62.87077
G1 X-43.543 Y26.002 E62.90472
G1 X-43.284 Y25.374 E62.93861
G1 X-43.194 Y24.700 E62.97253
G0 F9000 X-45.799 Y-22.095
G1 F1800 X-45.126 Y-22.183 E63.00639
G1 X-44.497 Y-22.443 E63.04035
G1 X-43.957 Y-22.857 E63.07430
G1 X-43.543 Y-23.398 E63.10828
G1 X-43.284 Y-24.025 E63.14213
G1 X-43.194 Y-24.700 E63.17610
G1 X-43.284 Y-25.374 E63.21003
G1 X-43.543 Y-26.002 E63.24392
G1 X-43.957 Y-26.542 E63.27787
G1 X-44.497 Y-26.956 E63.31181
G1 X-45.125 Y-27.215 E63.34570
G1 X-45.799 Y-27.305 E63.37963
G1 X-46.474 Y-27.215 E63.41360
G1 X-47.101 Y-26.956 E63.44745
G1 X-47.642 Y-26.542 E63.48143
G1 X-48.056 Y-26.002 E63.51538
G1 X-48.316 Y-25.373 E63.54934
G1 X-48.404 Y-24.700 E63.58320
G1 X-48.316 Y-24.026 E63.61711
G1 X-48.056 Y-23.398 E63.65102
G1 X-47.642 Y-22.857 E63.68501
G1 X-47.101 Y-22.443 E63.71900
G1 X-46.473 Y-22.183 E63.75291
G1 X-45.799 Y-22.095 E63.78682
G0 F9000 X-45.799 Y-22.498
;TYPE:WALL-OUTER
G1 F1800 X-45.230 Y-22.573 E63.81545
G1 X-44.698 Y-22.792 E63.84415
G1 X-44.242 Y-23.142 E63.87283
G1 X-43.892 Y-23.599 E63.90155
G1 X-43.673 Y-24.130 E63.93021
G1 X-43.597 Y-24.700 E63.95889
G1 X-43.673 Y-25.269 E63.98753
G1 X-43.892 Y-25.801 E64.01624
G1 X-44.242 Y-26.257 E64.04492
G1 X-44.698 Y-26.607 E64.07359
G1 X-45.230 Y-26.826 E64.10230
G1 X-45.799 Y-26.902 E64.13094
G1 X-46.369 Y-26.826 E64.15963
G1 X-46.900 Y-26.607 E64.18828
G1 X-47.357 Y-26.257 E64.21700
G1 X-47.707 Y-25.801 E64.24568
G1 X-47.926 Y-25.269 E64.27438
G1 X-48.001 Y-24.700 E64.30301
G1 X-47.926 Y-24.130 E64.33170
G1 X-47.707 Y-23.599 E64.36035
G1 X-47.357 Y-23.142 E64.38907
G1 X-46.900 Y-22.792 E64.41779
G1 X-46.369 Y-22.573 E64.44645
G1 X-45.799 Y-22.498 E64.47513
G0 F9000 X-45.837 Y-22.202
G0 X-41.998 Y-21.523
G0 X-41.700 Y-21.505
G1 F1800 X-41.700 Y21.505 E66.62091
G1 X-41.613 Y23.364 E66.71375
G1 X-41.356 Y25.211 E66.80679
G1 X-40.929 Y27.028 E66.89991
G1 X-40.336 Y28.796 E66.99294
G1 X-39.582 Y30.503 E67.08604
G1 X-38.674 Y32.133 E67.17913
G1 X-37.620 Y33.673 E67.27223
G1 X-36.428 Y35.108 E67.36530
G1 X-35.108 Y36.428 E67.45844
G1 X-33.673 Y37.620 E67.55151
G1 X-32.133 Y38.674 E67.64461
G1 X-30.503 Y39.582 E67.73770
G1 X-28.796 Y40.336 E67.83080
G1 X-27.028 Y40.929 E67.92383
G1 X-25.211 Y41.356 E68.01695
G1 X-23.364 Y41.613 E68.10999
G1 X-21.505 Y41.700 E68.20284
G1 X21.505 Y41.700 E70.34861
G1 X23.364 Y41.613 E70.44146
G1 X25.211 Y41.356 E70.53450
G1 X27.028 Y40.929 E70.62762
G1 X28.796 Y40.336 E70.72065
G1 X30.503 Y39.582 E70.81375
G1 X32.133 Y38.674 E70.90684
G1 X33.673 Y37.620 E70.99994
G1 X35.108 Y36.428 E71.09301
G1 X36.428 Y35.108 E71.18614
G1 X37.620 Y33.673 E71.27921
G1 X38.674 Y32.133 E71.37232
G1 X39.582 Y30.503 E71.46540
G1 X40.336 Y28.796 E71.55850
G1 X40.929 Y27.028 E71.65154
G1 X41.356 Y25.211 E71.74466
G1 X41.613 Y23.364 E71.83769
G1 X41.700 Y21.505 E71.93054
G1 X41.700 Y-21.505 E74.07632
G1 X41.613 Y-23.364 E74.16917
G1 X41.356 Y-25.211 E74.26220
G1 X40.929 Y-27.028 E74.35532
G1 X40.336 Y-28.796 E74.44836
G1 X39.582 Y-30.503 E74.54146
G1 X38.674 Y-32.133 E74.63454
G1 X37.620 Y-33.673 E74.72765
G1 X36.428 Y-35.108 E74.82072
G1 X35.108 Y-36.428 E74.91385
G1 X33.673 Y-37.620 E75.00692
G1 X32.133 Y-38.674 E75.10002
G1 X30.503 Y-39.582 E75.19311
G1 X28.796 Y-40.336 E75.28621
G1 X27.028 Y-40.929 E75.37925
G1 X25.211 Y-41.356 E75.47237
G1 X23.364 Y-41.613 E75.56540
G1 X21.505 Y-41.700 E75.65825
G1 X-21.505 Y-41.700 E77.80403
G1 X-23.364 Y-41.613 E77.89687
G1 X-25.211 Y-41.356 E77.98991
G1 X-27.028 Y-40.929 E78.08303
G1 X-28.796 Y-40.336 E78.17606
G1 X-30.503 Y-39.582 E78.26916
G1 X-32.133 Y-38.674 E78.36225
G1 X-33.673 Y-37.620 E78.45535
G1 X-35.108 Y-36.428 E78.54842
G1 X-36.428 Y-35.108 E78.64156
G1 X-37.620 Y-33.673 E78.73463
G1 X-38.674 Y-32.133 E78.82773
G1 X-39.582 Y-30.503 E78.92082
G1 X-40.336 Y-28.796 E79.01392
G1 X-40.929 Y-27.028 E79.10695
G1 X-41.356 Y-25.211 E79.20007
G1 X-41.613 Y-23.364 E79.29311
G1 X-41.700 Y-21.505 E79.38596
G0 F9000 X-41.998 Y-21.523
G0 X-47.800 Y-41.000
G0 X-47.800 Y-41.300
G1 F1800 X-47.800 Y-47.800 E79.71024
G1 X-41.300 Y-47.800 E80.03453
G1 X-41.300 Y-49.800 E80.13431
G1 X41.300 Y-49.800 E84.25524
G1 X41.300 Y-47.800 E84.35502
G1 X47.800 Y-47.800 E84.67931
G1 X47.800 Y-41.300 E85.00359
G1 X49.800 Y-41.300 E85.10337
G1 X49.800 Y41.300 E89.22430
G1 X47.800 Y41.300 E89.32408
G1 X47.800 Y47.800 E89.64837
G1 X41.300 Y47.800 E89.97266
