;Generated with Cura_SteamEngine 15.01
; Default start code
G28 ; Home extruder
G1 Z15 F100
M107 ; Turn off fan
G90 ; Absolute positioning
M82 ; Extruder in absolute mode
M190 S50
; Activate all used extruder
M104 T0 S210
G92 E0 ; Reset extruder position
; Wait for all used extruders to reach temperature
M109 T0 S210
;Layer count: 42
;LAYER:0
M107
G0 F9000 X52.787 Y0.001 Z0.300
;TYPE:SKIRT
G1 F1800 X52.788 Y3.225 E0.16085
G1 X52.787 Y5.576 E0.27814
G1 X52.788 Y8.800 E0.43898
G1 X52.787 Y11.151 E0.55628
G1 X52.788 Y14.375 E0.71712
G1 X52.787 Y16.725 E0.83436
G1 X52.788 Y19.949 E0.99521
G1 X52.787 Y22.300 E1.11250
G1 X52.788 Y25.525 E1.27340
G1 X52.787 Y27.876 E1.39069
G1 X52.788 Y31.100 E1.55154
G1 X52.787 Y33.451 E1.66883
G1 X52.788 Y36.675 E1.82967
G1 X52.787 Y39.025 E1.94692
G1 X52.788 Y42.249 E2.10776
G1 X52.787 Y44.600 E2.22505
G1 X52.788 Y47.824 E2.38590
G1 X52.787 Y50.175 E2.50319
G1 X52.788 Y53.400 E2.66409
G1 X52.787 Y56.059 E2.79675
G1 X52.524 Y57.408 E2.86531
G1 X51.470 Y58.690 E2.94811
G1 X50.389 Y59.303 E3.01011
G1 X49.553 Y59.527 E3.05329
G1 X46.836 Y59.538 E3.18885
G1 X45.258 Y59.537 E3.26757
G1 X42.596 Y59.545 E3.40038
G1 X40.210 Y59.542 E3.51942
G1 X38.997 Y58.102 E3.61335
G1 X38.601 Y57.349 E3.65580
G1 X38.393 Y56.665 E3.69147
G1 X38.305 Y56.104 E3.71980
G1 X38.300 Y55.148 E3.76749
G1 X38.300 Y47.450 E4.15155
G1 X32.314 Y47.450 E4.45019
G1 X31.118 Y45.567 E4.56148
G1 X31.009 Y45.454 E4.56931
G1 X30.882 Y45.366 E4.57702
G1 X30.730 Y45.301 E4.58527
G1 X30.580 Y45.270 E4.59291
G1 X30.417 Y45.270 E4.60104
G1 X30.270 Y45.299 E4.60852
G1 X30.125 Y45.361 E4.61639
G1 X29.993 Y45.452 E4.62439
G1 X29.885 Y45.563 E4.63211
G1 X28.682 Y47.450 E4.74376
G1 X-28.685 Y47.450 E7.60581
G1 X-29.882 Y45.567 E7.71713
G1 X-29.993 Y45.451 E7.72514
G1 X-30.126 Y45.360 E7.73318
G1 X-30.267 Y45.300 E7.74082
G1 X-30.418 Y45.270 E7.74850
G1 X-30.585 Y45.269 E7.75684
G1 X-30.726 Y45.298 E7.76402
G1 X-30.877 Y45.362 E7.77220
G1 X-31.005 Y45.450 E7.77995
G1 X-31.110 Y45.559 E7.78750
G1 X-31.338 Y45.914 E7.80855
G1 X-32.234 Y47.450 E7.89726
G1 X-38.300 Y47.450 E8.19990
G1 X-38.300 Y55.840 E8.61848
G1 X-38.320 Y56.188 E8.63587
G1 X-38.391 Y56.659 E8.65963
G1 X-38.606 Y57.365 E8.69645
G1 X-39.002 Y58.108 E8.73846
G1 X-40.211 Y59.544 E8.83211
G1 X-42.596 Y59.544 E8.95110
G1 X-45.257 Y59.538 E9.08385
G1 X-47.420 Y59.538 E9.19177
G1 X-49.115 Y59.537 E9.27633
G1 X-49.791 Y59.489 E9.31014
G1 X-51.101 Y58.995 E9.37999
G1 X-52.238 Y57.857 E9.46025
G1 X-52.780 Y56.444 E9.53575
G1 X-52.788 Y52.527 E9.73117
G1 X-52.787 Y50.173 E9.84861
G1 X-52.788 Y46.949 E10.00946
G1 X-52.787 Y44.598 E10.12675
G1 X-52.788 Y41.374 E10.28760
G1 X-52.787 Y39.023 E10.40489
G1 X-52.788 Y35.799 E10.56573
G1 X-52.787 Y33.449 E10.68298
G1 X-52.788 Y30.225 E10.84382
G1 X-52.787 Y27.874 E10.96111
G1 X-52.788 Y24.649 E11.12201
G1 X-52.787 Y22.298 E11.23930
G1 X-52.788 Y19.074 E11.40015
G1 X-52.787 Y16.723 E11.51744
G1 X-52.788 Y13.499 E11.67829
G1 X-52.787 Y11.149 E11.79553
G1 X-52.788 Y7.925 E11.95637
G1 X-52.787 Y5.574 E12.07367
G1 X-52.788 Y2.350 E12.23451
G1 X-52.787 Y-0.001 E12.35180
G1 X-52.788 Y-3.225 E12.51265
G1 X-52.787 Y-5.576 E12.62994
G1 X-52.788 Y-8.800 E12.79079
G1 X-52.787 Y-11.151 E12.90808
G1 X-52.788 Y-14.375 E13.06893
G1 X-52.787 Y-16.725 E13.18617
G1 X-52.788 Y-19.950 E13.34706
G1 X-52.787 Y-22.301 E13.46436
G1 X-52.788 Y-25.525 E13.62520
G1 X-52.787 Y-27.876 E13.74249
G1 X-52.788 Y-31.100 E13.90334
G1 X-52.787 Y-33.450 E14.02058
G1 X-52.788 Y-36.675 E14.18148
G1 X-52.787 Y-39.026 E14.29877
G1 X-52.788 Y-42.250 E14.45961
G1 X-52.787 Y-44.600 E14.57686
G1 X-52.788 Y-47.825 E14.73775
G1 X-52.787 Y-50.176 E14.85504
G1 X-52.788 Y-53.400 E15.01589
G1 X-52.787 Y-55.923 E15.14176
G1 X-52.679 Y-56.928 E15.19219
G1 X-51.954 Y-58.190 E15.26480
G1 X-51.058 Y-58.966 E15.32394
G1 X-50.222 Y-59.375 E15.37037
G1 X-49.272 Y-59.538 E15.41846
G1 X-46.830 Y-59.538 E15.54029
G1 X-45.258 Y-59.537 E15.61872
G1 X-42.596 Y-59.545 E15.75153
G1 X-40.210 Y-59.542 E15.87057
G1 X-38.997 Y-58.102 E15.96450
G1 X-38.601 Y-57.349 E16.00694
G1 X-38.393 Y-56.665 E16.04261
G1 X-38.305 Y-56.104 E16.07094
G1 X-38.300 Y-55.091 E16.12148
G1 X-38.300 Y-46.950 E16.52764
G1 X-32.314 Y-46.950 E16.82628
G1 X-31.117 Y-45.066 E16.93764
G1 X-31.010 Y-44.955 E16.94533
G1 X-30.883 Y-44.867 E16.95304
G1 X-30.730 Y-44.801 E16.96136
G1 X-30.580 Y-44.770 E16.96900
G1 X-30.417 Y-44.770 E16.97713
G1 X-30.270 Y-44.799 E16.98460
G1 X-30.125 Y-44.861 E16.99247
G1 X-29.993 Y-44.952 E17.00047
G1 X-29.885 Y-45.063 E17.00820
G1 X-28.682 Y-46.950 E17.11984
G1 X28.685 Y-46.950 E19.98190
G1 X29.882 Y-45.067 E20.09321
G1 X29.993 Y-44.951 E20.10122
G1 X30.126 Y-44.860 E20.10926
G1 X30.267 Y-44.800 E20.11691
G1 X30.418 Y-44.770 E20.12459
G1 X30.585 Y-44.769 E20.13292
G1 X30.726 Y-44.798 E20.14010
G1 X30.877 Y-44.862 E20.14828
G1 X31.001 Y-44.947 E20.15578
G1 X31.112 Y-45.061 E20.16372
G1 X31.338 Y-45.414 E20.18463
G1 X32.234 Y-46.950 E20.27335
G1 X38.300 Y-46.950 E20.57598
G1 X38.300 Y-55.840 E21.01951
G1 X38.320 Y-56.188 E21.03690
G1 X38.391 Y-56.659 E21.06066
G1 X38.606 Y-57.365 E21.09748
G1 X39.002 Y-58.108 E21.13949
G1 X40.211 Y-59.544 E21.23314
G1 X42.596 Y-59.544 E21.35213
G1 X45.257 Y-59.538 E21.48489
G1 X47.420 Y-59.538 E21.59280
G1 X49.309 Y-59.537 E21.68704
G1 X50.658 Y-59.274 E21.75561
G1 X51.940 Y-58.220 E21.83841
G1 X52.553 Y-57.139 E21.90041
G1 X52.778 Y-56.301 E21.94370
G1 X52.788 Y-52.529 E22.13188
G1 X52.787 Y-50.174 E22.24938
G1 X52.788 Y-46.949 E22.41027
G1 X52.787 Y-44.598 E22.52756
G1 X52.788 Y-41.374 E22.68841
G1 X52.787 Y-39.024 E22.80565
G1 X52.788 Y-35.799 E22.96655
G1 X52.787 Y-33.448 E23.08384
G1 X52.788 Y-30.224 E23.24469
G1 X52.787 Y-27.874 E23.36193
G1 X52.788 Y-24.650 E23.52277
G1 X52.787 Y-22.299 E23.64007
G1 X52.788 Y-19.074 E23.80096
G1 X52.787 Y-16.723 E23.91825
G1 X52.788 Y-13.499 E24.07910
G1 X52.787 Y-11.149 E24.19634
G1 X52.788 Y-7.925 E24.35719
G1 X52.787 Y-5.574 E24.47448
G1 X52.788 Y-2.350 E24.63532
G1 X52.787 Y0.001 E24.75262
G1 F2400 E20.75262
G0 F9000 X42.100 Y-29.771
;TYPE:WALL-INNER
G1 F2400 E24.75262
G1 F1800 X42.026 Y-30.806 E24.80438
G1 X42.013 Y-30.976 E24.81289
G1 X41.752 Y-32.172 E24.87396
G1 X41.324 Y-33.323 E24.93523
G1 X40.736 Y-34.400 E24.99645
G1 X39.999 Y-35.382 E25.05770
G1 X39.132 Y-36.249 E25.11887
G1 X38.150 Y-36.986 E25.18013
G1 X37.073 Y-37.574 E25.24135
G1 X35.922 Y-38.002 E25.30261
G1 X34.724 Y-38.263 E25.36378
G1 X33.522 Y-38.350 E25.42391
G1 X28.067 Y-38.350 E25.69606
G1 X13.069 Y-41.850 E26.46442
G1 X-13.069 Y-41.850 E27.76845
G1 X-28.067 Y-38.350 E28.53680
G1 X-33.420 Y-38.350 E28.80387
G1 X-34.722 Y-38.264 E28.86897
G1 X-35.922 Y-38.002 E28.93024
G1 X-37.073 Y-37.574 E28.99151
G1 X-38.150 Y-36.986 E29.05273
G1 X-39.132 Y-36.249 E29.11398
G1 X-39.999 Y-35.382 E29.17515
G1 X-40.736 Y-34.400 E29.23641
G1 X-41.324 Y-33.323 E29.29763
G1 X-41.752 Y-32.172 E29.35889
G1 X-42.013 Y-30.974 E29.42006
G1 X-42.100 Y-29.772 E29.48019
G1 X-42.100 Y30.271 E32.47575
G1 X-42.026 Y31.306 E32.52751
G1 X-42.013 Y31.476 E32.53602
G1 X-41.752 Y32.672 E32.59709
G1 X-41.324 Y33.823 E32.65836
G1 X-40.736 Y34.900 E32.71958
G1 X-39.999 Y35.882 E32.78083
G1 X-39.132 Y36.749 E32.84200
G1 X-38.150 Y37.486 E32.90326
G1 X-37.073 Y38.074 E32.96448
G1 X-35.922 Y38.502 E33.02574
G1 X-34.724 Y38.763 E33.08691
G1 X-33.522 Y38.850 E33.14704
G1 X-28.067 Y38.850 E33.41919
G1 X-13.069 Y42.350 E34.18755
G1 X13.069 Y42.350 E35.49158
G1 X28.067 Y38.850 E36.25993
G1 X33.419 Y38.850 E36.52695
G1 X34.722 Y38.764 E36.59209
G1 X35.922 Y38.502 E36.65337
G1 X37.073 Y38.074 E36.71464
G1 X38.150 Y37.486 E36.77586
G1 X39.132 Y36.749 E36.83711
G1 X39.999 Y35.882 E36.89828
G1 X40.736 Y34.900 E36.95954
G1 X41.324 Y33.823 E37.02076
G1 X41.752 Y32.672 E37.08202
G1 X42.013 Y31.474 E37.14319
G1 X42.100 Y30.272 E37.20332
G1 X42.100 Y-29.771 E40.19887
G0 F9000 X42.100 Y-43.150
G1 F1800 X42.100 Y-55.738 E40.82689
G1 X42.591 Y-55.744 E40.85139
G1 X45.249 Y-55.738 E40.98400
G1 X48.941 Y-55.737 E41.16819
G1 X48.979 Y-55.730 E41.17012
G1 X48.988 Y-52.525 E41.33002
G1 X48.987 Y55.692 E46.72899
G1 X48.980 Y55.730 E46.73092
G1 X46.829 Y55.738 E46.83823
G1 X45.249 Y55.737 E46.91706
G1 X42.592 Y55.745 E47.04962
G1 X42.103 Y55.744 E47.07401
G1 X42.100 Y55.139 E47.10420
G1 X42.100 Y43.650 E47.67738
G1 X34.402 Y43.650 E48.06144
G1 X34.121 Y43.208 E48.08757
G1 X33.482 Y42.545 E48.13351
G1 X32.730 Y42.025 E48.17912
G1 X31.875 Y41.657 E48.22556
G1 X30.968 Y41.471 E48.27175
G1 X30.046 Y41.469 E48.31775
G1 X29.140 Y41.651 E48.36386
G1 X28.288 Y42.012 E48.41002
G1 X27.528 Y42.535 E48.45605
G1 X26.886 Y43.198 E48.50209
G1 X26.598 Y43.650 E48.52883
G1 X-26.598 Y43.650 E51.18279
G1 X-26.886 Y43.198 E51.20953
G1 X-27.526 Y42.536 E51.25547
G1 X-28.173 Y42.091 E51.29464
G1 X-28.290 Y42.012 E51.30169
G1 X-29.010 Y41.706 E51.34072
G1 X-29.141 Y41.651 E51.34781
G1 X-29.909 Y41.496 E51.38689
G1 X-30.048 Y41.470 E51.39395
G1 X-30.828 Y41.469 E51.43286
G1 X-30.970 Y41.471 E51.43995
G1 X-31.738 Y41.626 E51.47904
G1 X-31.878 Y41.658 E51.48620
G1 X-32.597 Y41.964 E51.52519
G1 X-32.725 Y42.021 E51.53218
G1 X-33.373 Y42.466 E51.57139
G1 X-33.487 Y42.550 E51.57846
G1 X-34.103 Y43.187 E51.62267
G1 X-34.400 Y43.650 E51.65011
G1 X-42.100 Y43.650 E52.03427
G1 X-42.100 Y55.729 E52.63689
G1 X-42.101 Y55.744 E52.63764
G1 X-45.249 Y55.738 E52.79469
G1 X-48.971 Y55.737 E52.98039
G1 X-48.981 Y55.733 E52.98092
G1 X-48.988 Y52.524 E53.14102
G1 X-48.987 Y-55.716 E58.54114
G1 X-48.983 Y-55.733 E58.54201
G1 X-48.952 Y-55.738 E58.54357
G1 X-45.249 Y-55.737 E58.72832
G1 X-42.592 Y-55.745 E58.86088
G1 X-42.103 Y-55.744 E58.88527
G1 X-42.100 Y-55.083 E58.91825
G1 X-42.100 Y-43.150 E59.51359
G1 X-34.402 Y-43.150 E59.89764
G1 X-34.121 Y-42.708 E59.92378
G1 X-33.482 Y-42.044 E59.96975
G1 X-32.730 Y-41.524 E60.01536
G1 X-31.875 Y-41.157 E60.06178
G1 X-30.968 Y-40.971 E60.10798
G1 X-30.046 Y-40.969 E60.15397
G1 X-29.140 Y-41.151 E60.20008
G1 X-28.288 Y-41.512 E60.24624
G1 X-27.528 Y-42.035 E60.29227
G1 X-26.886 Y-42.698 E60.33831
G1 X-26.598 Y-43.150 E60.36505
G1 X26.598 Y-43.150 E63.01901
G1 X26.886 Y-42.698 E63.04575
G1 X27.526 Y-42.036 E63.09169
G1 X28.173 Y-41.591 E63.13087
G1 X28.290 Y-41.512 E63.13791
G1 X29.010 Y-41.206 E63.17694
G1 X29.141 Y-41.151 E63.18403
G1 X29.909 Y-40.996 E63.22312
G1 X30.048 Y-40.970 E63.23017
G1 X30.828 Y-40.969 E63.26908
G1 X30.970 Y-40.971 E63.27617
G1 X31.738 Y-41.126 E63.31526
G1 X31.878 Y-41.158 E63.32242
G1 X32.597 Y-41.464 E63.36141
G1 X32.725 Y-41.521 E63.36840
G1 X33.367 Y-41.962 E63.40726
G1 X33.466 Y-42.031 E63.41328
G1 X34.102 Y-42.686 E63.45883
G1 X34.400 Y-43.150 E63.48634
G1 X42.100 Y-43.150 E63.87049
G0 F9000 X41.700 Y-43.550
;TYPE:WALL-OUTER
G1 F1800 X41.700 Y-55.739 E64.47860
G1 X41.716 Y-55.908 E64.48707
G1 X41.761 Y-56.054 E64.49469
G1 X41.809 Y-56.144 E64.49978
G1 X48.982 Y-56.137 E64.85765
G1 X49.164 Y-56.102 E64.86689
G1 X49.292 Y-55.996 E64.87518
G1 X49.379 Y-55.843 E64.88396
G1 X49.387 Y55.733 E70.45051
G1 X49.352 Y55.914 E70.45971
G1 X49.246 Y56.042 E70.46800
G1 X49.093 Y56.129 E70.47678
G1 X42.592 Y56.145 E70.80112
G1 X41.809 Y56.144 E70.84019
G1 X41.760 Y56.051 E70.84543
G1 X41.717 Y55.909 E70.85283
G1 X41.704 Y55.826 E70.85702
G1 X41.700 Y55.139 E70.89130
G1 X41.700 Y44.050 E71.44453
G1 X34.182 Y44.050 E71.81961
G1 X33.805 Y43.457 E71.85466
G1 X33.221 Y42.851 E71.89665
G1 X32.535 Y42.376 E71.93828
G1 X31.754 Y42.040 E71.98070
G1 X30.927 Y41.871 E72.02281
G1 X30.085 Y41.869 E72.06482
G1 X29.259 Y42.035 E72.10685
G1 X28.481 Y42.365 E72.14901
G1 X27.787 Y42.842 E72.19102
G1 X27.201 Y43.447 E72.23305
G1 X26.817 Y44.050 E72.26871
G1 X-26.817 Y44.050 E74.94452
G1 X-27.146 Y43.533 E74.97510
G1 X-27.201 Y43.448 E74.98015
G1 X-27.786 Y42.843 E75.02213
G1 X-28.398 Y42.422 E75.05919
G1 X-28.481 Y42.365 E75.06422
G1 X-29.165 Y42.075 E75.10128
G1 X-29.258 Y42.036 E75.10631
G1 X-29.986 Y41.889 E75.14337
G1 X-30.085 Y41.870 E75.14839
G1 X-30.826 Y41.869 E75.18536
G1 X-30.927 Y41.870 E75.19040
G1 X-31.655 Y42.017 E75.22746
G1 X-31.755 Y42.040 E75.23257
G1 X-32.437 Y42.331 E75.26957
G1 X-32.529 Y42.372 E75.27459
G1 X-33.141 Y42.792 E75.31162
G1 X-33.222 Y42.852 E75.31665
G1 X-33.788 Y43.436 E75.35723
G1 X-34.182 Y44.050 E75.39362
G1 X-41.700 Y44.050 E75.76870
G1 X-41.700 Y55.739 E76.35187
G1 X-41.716 Y55.908 E76.36033
G1 X-41.761 Y56.054 E76.36796
G1 X-41.809 Y56.144 E76.37305
G1 X-49.000 Y56.137 E76.73181
G1 X-49.053 Y56.133 E76.73446
G1 X-49.216 Y56.072 E76.74314
G1 X-49.321 Y55.967 E76.75055
G1 X-49.381 Y55.811 E76.75889
G1 X-49.387 Y-55.739 E82.32414
G1 X-49.374 Y-55.856 E82.33001
G1 X-49.293 Y-55.997 E82.33813
G1 X-49.167 Y-56.106 E82.34644
G1 X-48.983 Y-56.138 E82.35575
G1 X-41.809 Y-56.144 E82.71367
G1 X-41.760 Y-56.051 E82.71891
G1 X-41.717 Y-55.909 E82.72631
G1 X-41.704 Y-55.827 E82.73046
G1 X-41.700 Y-55.083 E82.76757
G1 X-41.700 Y-43.550 E83.34296
G1 X-34.182 Y-43.550 E83.71803
G1 X-33.805 Y-42.957 E83.75309
G1 X-33.221 Y-42.350 E83.79511
G1 X-32.535 Y-41.876 E83.83671
G1 X-31.754 Y-41.540 E83.87913
G1 X-30.927 Y-41.371 E83.92124
G1 X-30.085 Y-41.369 E83.96325
G1 X-29.259 Y-41.535 E84.00528
G1 X-28.481 Y-41.865 E84.04745
G1 X-27.787 Y-42.342 E84.08946
G1 X-27.201 Y-42.947 E84.13148
G1 X-26.817 Y-43.550 E84.16715
G1 X26.817 Y-43.550 E86.84296
G1 X27.146 Y-43.033 E86.87353
G1 X27.201 Y-42.948 E86.87858
G1 X27.786 Y-42.343 E86.92057
G1 X28.398 Y-41.922 E86.95763
G1 X28.481 Y-41.865 E86.96265
G1 X29.165 Y-41.575 E86.99972
G1 X29.258 Y-41.536 E87.00475
G1 X29.986 Y-41.389 E87.04180
G1 X30.085 Y-41.370 E87.04683
G1 X30.826 Y-41.369 E87.08380
G1 X30.927 Y-41.370 E87.08884
G1 X31.655 Y-41.517 E87.12589
G1 X31.755 Y-41.540 E87.13101
G1 X32.437 Y-41.831 E87.16800
G1 X32.529 Y-41.872 E87.17303
G1 X33.139 Y-42.291 E87.20995
G1 X33.205 Y-42.337 E87.21396
G1 X33.787 Y-42.936 E87.25563
G1 X34.182 Y-43.550 E87.29205
G1 X41.700 Y-43.550 E87.66713
G0 F9000 X41.700 Y-43.250
G0 X38.076 Y-36.911
G0 X37.933 Y-36.649
G1 F1800 X36.906 Y-37.209 E87.72549
G1 X35.809 Y-37.617 E87.78388
G1 X34.667 Y-37.866 E87.84219
G1 X33.507 Y-37.950 E87.90022
G1 X28.024 Y-37.950 E88.17377
G1 X13.023 Y-41.450 E88.94227
G1 X-13.023 Y-41.450 E90.24171
G1 X-28.024 Y-37.950 E91.01021
G1 X-33.407 Y-37.950 E91.27877
G1 X-34.666 Y-37.867 E91.34172
G1 X-35.809 Y-37.617 E91.40009
G1 X-36.906 Y-37.209 E91.45848
G1 X-37.933 Y-36.649 E91.51684
G1 X-38.869 Y-35.946 E91.57525
G1 X-39.696 Y-35.119 E91.63359
G1 X-40.399 Y-34.183 E91.69200
G1 X-40.959 Y-33.156 E91.75036
G1 X-41.367 Y-32.059 E91.80875
G1 X-41.616 Y-30.917 E91.86706
G1 X-41.700 Y-29.757 E91.92509
G1 X-41.700 Y30.257 E94.91920
G1 X-41.627 Y31.276 E94.97016
G1 X-41.616 Y31.417 E94.97722
G1 X-41.367 Y32.559 E95.03553
G1 X-40.959 Y33.656 E95.09393
G1 X-40.399 Y34.683 E95.15228
G1 X-39.696 Y35.619 E95.21069
G1 X-38.869 Y36.446 E95.26904
G1 X-37.933 Y37.149 E95.32744
G1 X-36.906 Y37.709 E95.38580
G1 X-35.809 Y38.117 E95.44419
G1 X-34.667 Y38.366 E95.50250
G1 X-33.507 Y38.450 E95.56053
G1 X-28.024 Y38.450 E95.83407
G1 X-13.023 Y41.950 E96.60258
G1 X13.023 Y41.950 E97.90202
G1 X28.024 Y38.450 E98.67052
G1 X33.406 Y38.450 E98.93903
G1 X34.666 Y38.367 E99.00203
G1 X35.809 Y38.117 E99.06040
G1 X36.906 Y37.709 E99.11879
G1 X37.933 Y37.149 E99.17715
G1 X38.869 Y36.446 E99.23555
G1 X39.696 Y35.619 E99.29390
G1 X40.399 Y34.683 E99.35230
G1 X40.959 Y33.656 E99.41066
G1 X41.367 Y32.559 E99.46906
G1 X41.616 Y31.417 E99.52737
G1 X41.700 Y30.257 E99.58539
G1 X41.700 Y-29.757 E102.57950
G1 X41.627 Y-30.776 E102.63047
G1 X41.616 Y-30.917 E102.63753
G1 X41.367 Y-32.059 E102.69584
