;Generated with Cura_SteamEngine 15.01
; Default start code
G28 ; Home extruder
G1 Z15 F100
M107 ; Turn off fan
G90 ; Absolute positioning
M82 ; Extruder in absolute mode
M190 S50
; Activate all used extruder
M104 T0 S210
G92 E0 ; Reset extruder position
; Wait for all used extruders to reach temperature
M109 T0 S210
;Layer count: 77
;LAYER:0
M107
G0 F9000 X18.200 Y-51.900 Z0.300
;TYPE:SKIRT
G1 F1800 X26.718 Y-51.900 E0.42496
G1 X27.325 Y-52.760 E0.47748
G1 X28.359 Y-54.199 E0.56589
G1 X39.202 Y-54.200 E1.10684
G1 X41.657 Y-54.197 E1.22933
G1 X43.536 Y-51.542 E1.39160
G1 X43.806 Y-51.157 E1.41506
G1 X44.382 Y-50.941 E1.44575
G1 X44.826 Y-50.772 E1.46945
G1 X46.080 Y-50.054 E1.54154
G1 X46.492 Y-49.816 E1.56528
G1 X47.617 Y-48.904 E1.63753
G1 X47.983 Y-48.603 E1.66118
G1 X48.949 Y-47.520 E1.73358
G1 X49.262 Y-47.163 E1.75727
G1 X50.035 Y-45.948 E1.82911
G1 X50.287 Y-45.548 E1.85270
G1 X50.863 Y-44.208 E1.92546
G1 X51.046 Y-43.769 E1.94919
G1 X51.393 Y-42.372 E2.02101
G1 X51.505 Y-41.910 E2.04472
G1 X51.633 Y-40.348 E2.12291
G1 X51.650 Y-29.336 E2.67230
G1 X51.650 Y40.061 E6.13453
G1 X51.621 Y40.810 E6.17193
G1 X51.495 Y41.961 E6.22970
G1 X51.156 Y43.330 E6.30006
G1 X51.040 Y43.790 E6.32373
G1 X50.474 Y45.115 E6.39561
G1 X50.287 Y45.551 E6.41928
G1 X49.508 Y46.778 E6.49179
G1 X49.251 Y47.178 E6.51551
G1 X48.294 Y48.255 E6.58739
G1 X47.978 Y48.608 E6.61103
G1 X46.849 Y49.529 E6.68372
G1 X46.477 Y49.825 E6.70743
G1 X45.226 Y50.544 E6.77942
G1 X44.814 Y50.778 E6.80306
G1 X43.807 Y51.157 E6.85674
G1 X42.679 Y52.753 E6.95424
G1 X41.651 Y54.199 E7.04276
G1 X28.344 Y54.199 E7.70665
G1 X26.717 Y51.900 E7.84716
G1 X18.200 Y51.900 E8.27208
G1 X18.200 Y57.845 E8.56867
G1 X-18.200 Y57.846 E10.38468
G1 X-18.200 Y51.900 E10.68132
G1 X-26.717 Y51.900 E11.10624
G1 X-27.321 Y52.754 E11.15842
G1 X-28.349 Y54.199 E11.24690
G1 X-41.656 Y54.199 E11.91079
G1 X-43.536 Y51.542 E12.07317
G1 X-43.806 Y51.157 E12.09663
G1 X-44.382 Y50.941 E12.12732
G1 X-44.826 Y50.772 E12.15102
G1 X-46.080 Y50.054 E12.22312
G1 X-46.492 Y49.816 E12.24685
G1 X-47.617 Y48.904 E12.31911
G1 X-47.983 Y48.603 E12.34275
G1 X-48.949 Y47.520 E12.41515
G1 X-49.262 Y47.163 E12.43884
G1 X-50.035 Y45.948 E12.51068
G1 X-50.287 Y45.548 E12.53427
G1 X-50.863 Y44.208 E12.60704
G1 X-51.046 Y43.769 E12.63076
G1 X-51.393 Y42.372 E12.70258
G1 X-51.494 Y41.956 E12.72394
G1 X-51.621 Y40.812 E12.78136
G1 X-51.650 Y40.061 E12.81886
G1 X-51.650 Y-40.130 E16.81960
G1 X-51.543 Y-41.447 E16.88552
G1 X-51.504 Y-41.918 E16.90910
G1 X-51.157 Y-43.329 E16.98159
G1 X-51.040 Y-43.790 E17.00532
G1 X-50.474 Y-45.115 E17.07721
G1 X-50.287 Y-45.551 E17.10087
G1 X-49.508 Y-46.778 E17.17338
G1 X-49.251 Y-47.178 E17.19711
G1 X-48.294 Y-48.255 E17.26898
G1 X-47.978 Y-48.608 E17.29262
G1 X-46.849 Y-49.529 E17.36531
G1 X-46.477 Y-49.825 E17.38903
G1 X-45.226 Y-50.544 E17.46102
G1 X-44.814 Y-50.778 E17.48465
G1 X-43.807 Y-51.157 E17.53833
G1 X-42.675 Y-52.760 E17.63624
G1 X-41.641 Y-54.199 E17.72464
G1 X-30.798 Y-54.200 E18.26560
G1 X-28.343 Y-54.197 E18.38808
G1 X-26.717 Y-51.900 E18.52849
G1 X-18.200 Y-51.900 E18.95340
G1 X-18.200 Y-57.845 E19.25000
G1 X18.200 Y-57.846 E21.06600
G1 X18.200 Y-51.900 E21.36265
G1 F2400 E17.36265
G0 F9000 X14.400 Y-54.046
;TYPE:WALL-INNER
G1 F2400 E21.36265
G1 F1800 X14.400 Y-48.100 E21.65930
G1 X29.393 Y-48.100 E22.40730
G1 X29.059 Y-47.915 E22.42635
G1 X28.723 Y-47.649 E22.44773
G1 X28.435 Y-47.332 E22.46910
G1 X28.210 Y-46.985 E22.48973
G1 X28.034 Y-46.577 E22.51190
G1 X27.933 Y-46.178 E22.53243
G1 X27.898 Y-45.748 E22.55396
G1 X27.938 Y-45.301 E22.57635
G1 X28.046 Y-44.884 E22.59784
G1 X28.223 Y-44.494 E22.61920
G1 X28.459 Y-44.136 E22.64060
G1 X28.754 Y-43.821 E22.66213
G1 X29.095 Y-43.561 E22.68352
G1 X29.471 Y-43.361 E22.70477
G1 X29.861 Y-43.228 E22.72533
G1 X30.285 Y-43.156 E22.74678
G1 X30.736 Y-43.158 E22.76928
G1 X31.158 Y-43.234 E22.79068
G1 X31.563 Y-43.375 E22.81207
G1 X31.940 Y-43.584 E22.83358
G1 X32.276 Y-43.850 E22.85496
G1 X32.564 Y-44.167 E22.87632
G1 X32.789 Y-44.514 E22.89696
G1 X32.965 Y-44.922 E22.91913
G1 X33.066 Y-45.320 E22.93961
G1 X33.102 Y-45.752 E22.96124
G1 X33.061 Y-46.199 E22.98363
G1 X32.953 Y-46.615 E23.00507
G1 X32.776 Y-47.005 E23.02644
G1 X32.540 Y-47.363 E23.04783
G1 X32.245 Y-47.678 E23.06937
G1 X31.904 Y-47.938 E23.09076
G1 X31.528 Y-48.138 E23.11201
G1 X31.138 Y-48.271 E23.13256
G1 X30.714 Y-48.343 E23.15402
G1 X30.263 Y-48.341 E23.17652
G1 X29.841 Y-48.265 E23.19791
G1 X29.600 Y-48.181 E23.21065
G1 X29.600 Y-49.395 E23.27121
G1 X30.309 Y-50.399 E23.33253
G1 X39.689 Y-50.399 E23.80050
G1 X40.400 Y-49.394 E23.86192
G1 X40.400 Y-48.126 E23.92518
G1 X41.668 Y-47.851 E23.98991
G1 X41.969 Y-47.787 E24.00527
G1 X43.037 Y-47.387 E24.06216
G1 X43.197 Y-47.326 E24.07071
G1 X44.185 Y-46.760 E24.12751
G1 X44.332 Y-46.675 E24.13599
G1 X45.213 Y-45.960 E24.19259
G1 X45.346 Y-45.851 E24.20117
G1 X46.104 Y-45.001 E24.25799
G1 X46.212 Y-44.879 E24.26612
G1 X46.825 Y-43.914 E24.32316
G1 X46.915 Y-43.771 E24.33159
G1 X47.362 Y-42.730 E24.38811
G1 X47.429 Y-42.569 E24.39681
G1 X47.702 Y-41.467 E24.45345
G1 X47.742 Y-41.303 E24.46187
G1 X47.833 Y-40.190 E24.51758
G1 X47.850 Y39.977 E28.51713
G1 X47.828 Y40.540 E28.54524
G1 X47.745 Y41.295 E28.58313
G1 X47.471 Y42.406 E28.64022
G1 X47.429 Y42.569 E28.64862
G1 X46.980 Y43.619 E28.70559
G1 X46.915 Y43.771 E28.71384
G1 X46.306 Y44.732 E28.77060
G1 X46.217 Y44.871 E28.77884
G1 X45.456 Y45.727 E28.83598
G1 X45.346 Y45.852 E28.84429
G1 X44.466 Y46.569 E28.90092
G1 X44.333 Y46.675 E28.90940
G1 X43.344 Y47.243 E28.96630
G1 X43.196 Y47.327 E28.97479
G1 X42.133 Y47.727 E29.03146
G1 X41.971 Y47.787 E29.04008
G1 X40.400 Y48.125 E29.12025
G1 X40.400 Y49.395 E29.18361
G1 X39.690 Y50.399 E29.24496
G1 X30.311 Y50.399 E29.71288
G1 X29.600 Y49.394 E29.77429
G1 X29.600 Y48.182 E29.83476
G1 X29.861 Y48.271 E29.84852
G1 X30.285 Y48.343 E29.86998
G1 X30.736 Y48.341 E29.89248
G1 X31.158 Y48.265 E29.91387
G1 X31.563 Y48.124 E29.93526
G1 X31.940 Y47.915 E29.95677
G1 X32.276 Y47.649 E29.97815
G1 X32.564 Y47.332 E29.99952
G1 X32.789 Y46.985 E30.02015
G1 X32.965 Y46.577 E30.04232
G1 X33.066 Y46.179 E30.06280
G1 X33.102 Y45.748 E30.08438
G1 X33.061 Y45.300 E30.10683
G1 X32.953 Y44.884 E30.12827
G1 X32.776 Y44.494 E30.14964
G1 X32.540 Y44.136 E30.17103
G1 X32.245 Y43.821 E30.19256
G1 X31.904 Y43.561 E30.21395
G1 X31.528 Y43.361 E30.23520
G1 X31.138 Y43.228 E30.25576
G1 X30.714 Y43.156 E30.27721
G1 X30.263 Y43.158 E30.29971
G1 X29.841 Y43.234 E30.32111
G1 X29.436 Y43.375 E30.34250
G1 X29.059 Y43.584 E30.36401
G1 X28.723 Y43.850 E30.38539
G1 X28.435 Y44.167 E30.40675
G1 X28.210 Y44.514 E30.42739
G1 X28.034 Y44.922 E30.44956
G1 X27.933 Y45.321 E30.47009
G1 X27.898 Y45.752 E30.49166
G1 X27.938 Y46.198 E30.51400
G1 X28.046 Y46.615 E30.53549
G1 X28.223 Y47.005 E30.55686
G1 X28.459 Y47.363 E30.57825
G1 X28.754 Y47.678 E30.59978
G1 X29.095 Y47.938 E30.62118
G1 X29.400 Y48.100 E30.63841
G1 X14.400 Y48.100 E31.38676
G1 X14.400 Y54.045 E31.68336
G1 X-14.400 Y54.046 E33.12020
G1 X-14.400 Y48.100 E33.41684
G1 X-29.393 Y48.100 E34.16485
G1 X-29.059 Y47.915 E34.18390
G1 X-28.723 Y47.649 E34.20528
G1 X-28.435 Y47.332 E34.22664
G1 X-28.210 Y46.985 E34.24728
G1 X-28.034 Y46.577 E34.26944
G1 X-27.933 Y46.178 E34.28998
G1 X-27.898 Y45.748 E34.31150
G1 X-27.938 Y45.301 E34.33389
G1 X-28.046 Y44.884 E34.35538
G1 X-28.223 Y44.494 E34.37675
G1 X-28.459 Y44.136 E34.39814
G1 X-28.754 Y43.821 E34.41967
G1 X-29.095 Y43.561 E34.44107
G1 X-29.471 Y43.361 E34.46231
G1 X-29.861 Y43.228 E34.48287
G1 X-30.285 Y43.156 E34.50433
G1 X-30.736 Y43.158 E34.52683
G1 X-31.158 Y43.234 E34.54822
G1 X-31.563 Y43.375 E34.56962
G1 X-31.940 Y43.584 E34.59112
G1 X-32.276 Y43.850 E34.61250
G1 X-32.564 Y44.167 E34.63387
G1 X-32.789 Y44.514 E34.65450
G1 X-32.965 Y44.922 E34.67667
G1 X-33.066 Y45.320 E34.69716
G1 X-33.102 Y45.752 E34.71878
G1 X-33.061 Y46.199 E34.74118
G1 X-32.953 Y46.615 E34.76262
G1 X-32.776 Y47.005 E34.78399
G1 X-32.540 Y47.363 E34.80538
G1 X-32.245 Y47.678 E34.82691
G1 X-31.904 Y47.938 E34.84831
G1 X-31.528 Y48.138 E34.86955
G1 X-31.138 Y48.271 E34.89011
G1 X-30.714 Y48.343 E34.91157
G1 X-30.263 Y48.341 E34.93407
G1 X-29.841 Y48.265 E34.95546
G1 X-29.599 Y48.181 E34.96824
G1 X-29.599 Y49.393 E35.02871
G1 X-30.311 Y50.399 E35.09019
G1 X-39.689 Y50.399 E35.55806
G1 X-40.400 Y49.394 E35.61948
G1 X-40.400 Y48.126 E35.68274
G1 X-41.668 Y47.851 E35.74748
G1 X-41.969 Y47.787 E35.76283
G1 X-43.040 Y47.386 E35.81988
G1 X-43.197 Y47.326 E35.82827
G1 X-44.187 Y46.759 E35.88519
G1 X-44.332 Y46.675 E35.89355
G1 X-45.213 Y45.960 E35.95015
G1 X-45.346 Y45.851 E35.95873
G1 X-46.104 Y45.001 E36.01555
G1 X-46.212 Y44.879 E36.02368
G1 X-46.826 Y43.913 E36.08079
G1 X-46.915 Y43.771 E36.08915
G1 X-47.365 Y42.724 E36.14600
G1 X-47.429 Y42.569 E36.15437
G1 X-47.702 Y41.467 E36.21101
G1 X-47.745 Y41.291 E36.22005
G1 X-47.828 Y40.539 E36.25779
G1 X-47.850 Y39.977 E36.28585
G1 X-47.850 Y-39.977 E40.27478
G1 X-47.756 Y-41.134 E40.33269
G1 X-47.742 Y-41.300 E40.34100
G1 X-47.470 Y-42.406 E40.39782
G1 X-47.429 Y-42.569 E40.40621
G1 X-46.980 Y-43.619 E40.46318
G1 X-46.915 Y-43.771 E40.47143
G1 X-46.306 Y-44.732 E40.52819
G1 X-46.217 Y-44.871 E40.53642
G1 X-45.456 Y-45.727 E40.59357
G1 X-45.346 Y-45.852 E40.60187
G1 X-44.466 Y-46.569 E40.65850
G1 X-44.333 Y-46.675 E40.66699
G1 X-43.344 Y-47.243 E40.72389
G1 X-43.196 Y-47.327 E40.73238
G1 X-42.133 Y-47.727 E40.78904
G1 X-41.971 Y-47.787 E40.79766
G1 X-40.400 Y-48.125 E40.87783
G1 X-40.400 Y-49.395 E40.94119
G1 X-39.691 Y-50.399 E41.00251
G1 X-30.311 Y-50.399 E41.47048
G1 X-29.599 Y-49.394 E41.53193
G1 X-29.599 Y-48.182 E41.59240
G1 X-29.861 Y-48.271 E41.60620
G1 X-30.285 Y-48.343 E41.62766
G1 X-30.736 Y-48.341 E41.65016
G1 X-31.158 Y-48.265 E41.67155
G1 X-31.563 Y-48.124 E41.69295
G1 X-31.940 Y-47.915 E41.71445
G1 X-32.276 Y-47.649 E41.73583
G1 X-32.564 Y-47.332 E41.75720
G1 X-32.789 Y-46.985 E41.77783
G1 X-32.965 Y-46.577 E41.80000
G1 X-33.066 Y-46.179 E41.82049
G1 X-33.102 Y-45.748 E41.84207
G1 X-33.061 Y-45.300 E41.86451
G1 X-32.953 Y-44.884 E41.88595
G1 X-32.776 Y-44.494 E41.90732
G1 X-32.540 Y-44.136 E41.92871
G1 X-32.245 Y-43.821 E41.95024
G1 X-31.904 Y-43.561 E41.97164
G1 X-31.528 Y-43.361 E41.99288
G1 X-31.138 Y-43.228 E42.01344
G1 X-30.714 Y-43.156 E42.03490
G1 X-30.263 Y-43.158 E42.05740
G1 X-29.841 Y-43.234 E42.07879
G1 X-29.436 Y-43.375 E42.10019
G1 X-29.059 Y-43.584 E42.12169
G1 X-28.723 Y-43.850 E42.14307
G1 X-28.435 Y-44.167 E42.16444
G1 X-28.210 Y-44.514 E42.18507
G1 X-28.034 Y-44.922 E42.20724
G1 X-27.933 Y-45.321 E42.22777
G1 X-27.898 Y-45.752 E42.24935
G1 X-27.938 Y-46.198 E42.27169
G1 X-28.046 Y-46.615 E42.29318
G1 X-28.223 Y-47.005 E42.31455
G1 X-28.459 Y-47.363 E42.33594
G1 X-28.754 Y-47.678 E42.35747
G1 X-29.095 Y-47.938 E42.37886
G1 X-29.400 Y-48.100 E42.39609
G1 X-14.400 Y-48.100 E43.14444
G1 X-14.400 Y-54.045 E43.44104
G1 X14.400 Y-54.046 E44.87788
G0 F9000 X14.459 Y-48.159
G0 X32.794 Y-38.828
G1 F1800 X-32.252 Y-38.828 E48.12304
G1 X-33.150 Y-38.757 E48.16798
G1 X-34.051 Y-38.541 E48.21420
G1 X-34.907 Y-38.186 E48.26044
G1 X-35.697 Y-37.703 E48.30663
G1 X-36.401 Y-37.100 E48.35288
G1 X-37.002 Y-36.397 E48.39902
G1 X-37.486 Y-35.607 E48.44524
G1 X-37.840 Y-34.752 E48.49141
G1 X-38.056 Y-33.851 E48.53764
G1 X-38.128 Y-32.952 E48.58263
G1 X-38.128 Y32.095 E51.82784
G1 X-38.056 Y32.993 E51.87278
G1 X-37.840 Y33.894 E51.91901
G1 X-37.486 Y34.750 E51.96522
G1 X-37.002 Y35.540 E52.01144
G1 X-36.401 Y36.244 E52.05762
G1 X-35.697 Y36.845 E52.10381
G1 X-34.907 Y37.329 E52.15003
G1 X-34.051 Y37.683 E52.19624
G1 X-33.150 Y37.899 E52.24247
G1 X-32.252 Y37.971 E52.28741
G1 X32.795 Y37.971 E55.53262
G1 X33.694 Y37.899 E55.57761
G1 X34.595 Y37.683 E55.62384
G1 X35.450 Y37.329 E55.67001
G1 X36.240 Y36.845 E55.71623
G1 X36.943 Y36.244 E55.76237
G1 X37.546 Y35.540 E55.80862
G1 X38.029 Y34.750 E55.85481
G1 X38.383 Y33.894 E55.90103
G1 X38.599 Y32.993 E55.94725
G1 X38.671 Y32.095 E55.99220
G1 X38.671 Y-32.952 E59.23740
G1 X38.599 Y-33.851 E59.28240
G1 X38.383 Y-34.752 E59.32862
G1 X38.029 Y-35.607 E59.37479
G1 X37.546 Y-36.397 E59.42099
G1 X36.944 Y-37.101 E59.46720
G1 X36.240 Y-37.703 E59.51341
G1 X35.450 Y-38.186 E59.55961
G1 X34.595 Y-38.541 E59.60580
G1 X33.694 Y-38.757 E59.65202
G1 X32.794 Y-38.828 E59.69706
G0 F9000 X32.779 Y-38.428
;TYPE:WALL-OUTER
G1 F1800 X-32.236 Y-38.428 E62.94067
G1 X-33.087 Y-38.361 E62.98326
G1 X-33.927 Y-38.160 E63.02635
G1 X-34.725 Y-37.829 E63.06945
G1 X-35.461 Y-37.378 E63.11252
G1 X-36.117 Y-36.817 E63.15558
G1 X-36.677 Y-36.161 E63.19861
G1 X-37.129 Y-35.425 E63.24170
G1 X-37.459 Y-34.628 E63.28474
G1 X-37.660 Y-33.788 E63.32783
G1 X-37.728 Y-32.936 E63.37047
G1 X-37.728 Y32.079 E66.61408
G1 X-37.660 Y32.930 E66.65668
G1 X-37.459 Y33.770 E66.69977
G1 X-37.129 Y34.568 E66.74285
G1 X-36.677 Y35.304 E66.78594
G1 X-36.117 Y35.960 E66.82897
G1 X-35.461 Y36.520 E66.87200
G1 X-34.725 Y36.972 E66.91509
G1 X-33.927 Y37.302 E66.95818
G1 X-33.087 Y37.503 E67.00127
G1 X-32.236 Y37.571 E67.04386
G1 X32.779 Y37.571 E70.28747
G1 X33.631 Y37.503 E70.33011
G1 X34.471 Y37.302 E70.37320
G1 X35.268 Y36.972 E70.41624
G1 X36.004 Y36.520 E70.45933
G1 X36.660 Y35.960 E70.50236
G1 X37.221 Y35.304 E70.54542
G1 X37.672 Y34.568 E70.58849
G1 X38.002 Y33.770 E70.63157
G1 X38.203 Y32.930 E70.67466
G1 X38.271 Y32.079 E70.71725
G1 X38.271 Y-32.936 E73.96086
G1 X38.203 Y-33.788 E74.00351
G1 X38.002 Y-34.628 E74.04660
G1 X37.672 Y-35.425 E74.08963
G1 X37.221 Y-36.161 E74.13270
G1 X36.660 Y-36.817 E74.17576
G1 X36.004 Y-37.378 E74.21883
G1 X35.268 Y-37.829 E74.26189
G1 X34.471 Y-38.160 E74.30495
G1 X33.631 Y-38.361 E74.34804
G1 X32.779 Y-38.428 E74.39067
G0 F9000 X32.804 Y-38.726
G0 X31.108 Y-43.327
G0 X31.056 Y-43.622
G1 F1800 X31.399 Y-43.742 E74.40880
G1 X31.717 Y-43.918 E74.42694
G1 X32.002 Y-44.143 E74.44505
G1 X32.246 Y-44.412 E74.46317
G1 X32.435 Y-44.703 E74.48048
G1 X32.585 Y-45.051 E74.49939
G1 X32.670 Y-45.387 E74.51668
G1 X32.701 Y-45.751 E74.53491
G1 X32.666 Y-46.130 E74.55389
G1 X32.574 Y-46.481 E74.57200
G1 X32.425 Y-46.811 E74.59006
G1 X32.225 Y-47.114 E74.60817
G1 X31.976 Y-47.380 E74.62635
G1 X31.687 Y-47.600 E74.64447
G1 X31.368 Y-47.770 E74.66251
G1 X31.039 Y-47.882 E74.67985
G1 X30.681 Y-47.943 E74.69796
G1 X30.300 Y-47.941 E74.71697
G1 X29.943 Y-47.877 E74.73507
G1 X29.600 Y-47.757 E74.75320
G1 X29.282 Y-47.581 E74.77133
G1 X28.997 Y-47.356 E74.78944
G1 X28.753 Y-47.087 E74.80756
G1 X28.564 Y-46.796 E74.82487
G1 X28.414 Y-46.448 E74.84378
G1 X28.329 Y-46.112 E74.86107
G1 X28.299 Y-45.749 E74.87924
G1 X28.333 Y-45.370 E74.89823
G1 X28.425 Y-45.018 E74.91638
G1 X28.574 Y-44.688 E74.93444
G1 X28.774 Y-44.385 E74.95256
G1 X29.023 Y-44.119 E74.97073
G1 X29.312 Y-43.899 E74.98886
G1 X29.631 Y-43.729 E75.00689
G1 X29.960 Y-43.617 E75.02423
G1 X30.318 Y-43.556 E75.04235
G1 X30.699 Y-43.558 E75.06135
G1 X31.056 Y-43.622 E75.07945
G0 F9000 X31.108 Y-43.327
G0 X29.472 Y-43.362
G0 X28.224 Y-44.495
G0 X27.934 Y-46.177
G0 X28.724 Y-47.648
G0 X29.200 Y-48.200
G0 X29.200 Y-48.500
G1 F1800 X29.200 Y-49.522 E75.13044
G1 X30.093 Y-50.786 E75.20765
G1 X30.102 Y-50.799 E75.20844
G1 X39.896 Y-50.799 E75.69706
G1 X40.800 Y-49.521 E75.77516
G1 X40.800 Y-48.449 E75.82864
G1 X42.080 Y-48.173 E75.89397
G1 X43.180 Y-47.761 E75.95257
G1 X43.366 Y-47.690 E75.96250
G1 X44.561 Y-47.005 E76.03122
G1 X45.467 Y-46.269 E76.08946
G1 X45.625 Y-46.139 E76.09967
G1 X46.402 Y-45.268 E76.15790
G1 X46.533 Y-45.119 E76.16780
G1 X47.269 Y-43.960 E76.23629
G1 X47.731 Y-42.884 E76.29471
G1 X47.810 Y-42.696 E76.30489
