;Generated with Cura_SteamEngine 15.01
; Default start code
G28 ; Home extruder
G1 Z15 F100
M107 ; Turn off fan
G90 ; Absolute positioning
M82 ; Extruder in absolute mode
M190 S50
; Activate all used extruder
M104 T0 S210
G92 E0 ; Reset extruder position
; Wait for all used extruders to reach temperature
M109 T0 S210
;Layer count: 65
;LAYER:0
M107
G0 F9000 X44.700 Y-51.200 Z0.300
;TYPE:SKIRT
G1 F1800 X51.200 Y-51.200 E0.32429
G1 X51.200 Y-44.700 E0.64857
G1 X53.200 Y-44.700 E0.74835
G1 X53.200 Y44.700 E5.20854
G1 X51.200 Y44.700 E5.30832
G1 X51.200 Y51.200 E5.63260
G1 X44.700 Y51.200 E5.95689
G1 X44.700 Y53.200 E6.05667
G1 X-44.700 Y53.200 E10.51685
G1 X-44.700 Y51.200 E10.61664
G1 X-51.200 Y51.200 E10.94092
G1 X-51.200 Y44.700 E11.26521
G1 X-53.200 Y44.700 E11.36499
G1 X-53.200 Y-44.700 E15.82517
G1 X-51.200 Y-44.700 E15.92495
G1 X-51.200 Y-51.200 E16.24924
G1 X-44.700 Y-51.200 E16.57353
G1 X-44.700 Y-53.200 E16.67331
G1 X44.700 Y-53.200 E21.13349
G1 X44.700 Y-51.200 E21.23327
G1 F2400 E17.23327
G0 F9000 X40.900 Y-49.400
;TYPE:WALL-INNER
G1 F2400 E21.23327
G1 F1800 X40.900 Y-47.400 E21.33305
G1 X47.400 Y-47.400 E21.65734
G1 X47.400 Y-40.900 E21.98162
G1 X49.400 Y-40.900 E22.08140
G1 X49.400 Y40.900 E26.16242
G1 X47.400 Y40.900 E26.26220
G1 X47.400 Y47.400 E26.58649
G1 X40.900 Y47.400 E26.91078
G1 X40.900 Y49.400 E27.01056
G1 X36.530 Y49.400 E27.22858
G1 X37.076 Y49.348 E27.25594
G1 X37.190 Y49.337 E27.26165
G1 X37.791 Y49.164 E27.29285
G1 X38.409 Y48.863 E27.32715
G1 X38.962 Y48.445 E27.36173
G1 X39.352 Y48.017 E27.39062
G1 X39.429 Y47.931 E27.39638
G1 X39.757 Y47.399 E27.42756
G1 X40.009 Y46.759 E27.46188
G1 X40.137 Y46.079 E27.49640
G1 X40.137 Y45.489 E27.52583
G1 X40.131 Y45.375 E27.53153
G1 X40.017 Y44.771 E27.56219
G1 X39.772 Y44.128 E27.59652
G1 X39.407 Y43.539 E27.63109
G1 X38.984 Y43.077 E27.66235
G1 X38.440 Y42.656 E27.69666
G1 X37.822 Y42.346 E27.73116
G1 X37.220 Y42.173 E27.76241
G1 X36.567 Y42.103 E27.79517
G1 X36.448 Y42.101 E27.80111
G1 X35.842 Y42.158 E27.83148
G1 X35.179 Y42.345 E27.86584
G1 X34.662 Y42.602 E27.89465
G1 X34.559 Y42.655 E27.90043
G1 X34.081 Y43.018 E27.93037
G1 X33.997 Y43.094 E27.93602
G1 X33.591 Y43.541 E27.96615
G1 X33.228 Y44.126 E28.00050
G1 X33.017 Y44.672 E28.02970
G1 X32.980 Y44.779 E28.03535
G1 X32.871 Y45.365 E28.06509
G1 X32.861 Y45.479 E28.07080
G1 X32.862 Y46.079 E28.10073
G1 X32.968 Y46.646 E28.12951
G1 X32.987 Y46.754 E28.13498
G1 X33.202 Y47.307 E28.16458
G1 X33.249 Y47.412 E28.17032
G1 X33.565 Y47.919 E28.20012
G1 X34.037 Y48.446 E28.23542
G1 X34.495 Y48.791 E28.26403
G1 X34.586 Y48.861 E28.26976
G1 X35.150 Y49.141 E28.30117
G1 X35.809 Y49.336 E28.33546
G1 X36.468 Y49.400 E28.36849
G1 X-36.469 Y49.400 E32.00733
G1 X-35.923 Y49.348 E32.03469
G1 X-35.809 Y49.337 E32.04041
G1 X-35.208 Y49.164 E32.07161
G1 X-34.590 Y48.863 E32.10590
G1 X-34.037 Y48.445 E32.14049
G1 X-33.647 Y48.017 E32.16938
G1 X-33.570 Y47.931 E32.17514
G1 X-33.242 Y47.399 E32.20632
G1 X-32.990 Y46.759 E32.24063
G1 X-32.862 Y46.079 E32.27515
G1 X-32.862 Y45.489 E32.30459
G1 X-32.868 Y45.375 E32.31028
G1 X-32.982 Y44.771 E32.34095
G1 X-33.227 Y44.128 E32.37528
G1 X-33.592 Y43.539 E32.40985
G1 X-34.015 Y43.077 E32.44110
G1 X-34.559 Y42.656 E32.47542
G1 X-35.177 Y42.346 E32.50991
G1 X-35.779 Y42.173 E32.54116
G1 X-36.433 Y42.103 E32.57398
G1 X-36.552 Y42.101 E32.57991
G1 X-37.157 Y42.158 E32.61023
G1 X-37.820 Y42.345 E32.64460
G1 X-38.337 Y42.602 E32.67340
G1 X-38.440 Y42.655 E32.67918
G1 X-38.918 Y43.018 E32.70913
G1 X-39.002 Y43.094 E32.71478
G1 X-39.408 Y43.541 E32.74491
G1 X-39.771 Y44.126 E32.77925
G1 X-39.982 Y44.672 E32.80846
G1 X-40.019 Y44.779 E32.81411
G1 X-40.128 Y45.365 E32.84384
G1 X-40.138 Y45.479 E32.84955
G1 X-40.137 Y46.079 E32.87949
G1 X-40.031 Y46.646 E32.90826
G1 X-40.012 Y46.754 E32.91373
G1 X-39.797 Y47.307 E32.94334
G1 X-39.750 Y47.412 E32.94907
G1 X-39.434 Y47.919 E32.97888
G1 X-38.962 Y48.446 E33.01418
G1 X-38.504 Y48.791 E33.04278
G1 X-38.413 Y48.861 E33.04851
G1 X-37.849 Y49.141 E33.07993
G1 X-37.190 Y49.336 E33.11421
G1 X-36.532 Y49.400 E33.14720
G1 X-40.900 Y49.400 E33.36512
G1 X-40.900 Y47.400 E33.46490
G1 X-47.400 Y47.400 E33.78918
G1 X-47.400 Y40.900 E34.11347
G1 X-49.400 Y40.900 E34.21325
G1 X-49.400 Y-40.900 E38.29427
G1 X-47.400 Y-40.900 E38.39405
G1 X-47.400 Y-47.400 E38.71833
G1 X-40.900 Y-47.400 E39.04262
G1 X-40.900 Y-49.400 E39.14240
G1 X-36.530 Y-49.400 E39.36042
G1 X-37.076 Y-49.348 E39.38778
G1 X-37.190 Y-49.337 E39.39350
G1 X-37.791 Y-49.164 E39.42470
G1 X-38.409 Y-48.863 E39.45899
G1 X-38.962 Y-48.445 E39.49358
G1 X-39.352 Y-48.017 E39.52247
G1 X-39.429 Y-47.931 E39.52823
G1 X-39.757 Y-47.399 E39.55941
G1 X-40.009 Y-46.759 E39.59372
G1 X-40.137 Y-46.079 E39.62824
G1 X-40.137 Y-45.489 E39.65768
G1 X-40.131 Y-45.375 E39.66337
G1 X-40.017 Y-44.771 E39.69404
G1 X-39.772 Y-44.128 E39.72837
G1 X-39.407 Y-43.539 E39.76294
G1 X-38.984 Y-43.077 E39.79419
G1 X-38.440 Y-42.656 E39.82851
G1 X-37.822 Y-42.346 E39.86300
G1 X-37.220 Y-42.173 E39.89425
G1 X-36.567 Y-42.103 E39.92702
G1 X-36.448 Y-42.101 E39.93295
G1 X-35.842 Y-42.158 E39.96332
G1 X-35.179 Y-42.345 E39.99769
G1 X-34.662 Y-42.602 E40.02649
G1 X-34.559 Y-42.655 E40.03227
G1 X-34.081 Y-43.018 E40.06222
G1 X-33.997 Y-43.094 E40.06787
G1 X-33.591 Y-43.541 E40.09800
G1 X-33.228 Y-44.126 E40.13234
G1 X-33.017 Y-44.672 E40.16155
G1 X-32.980 Y-44.779 E40.16720
G1 X-32.871 Y-45.365 E40.19693
G1 X-32.861 Y-45.479 E40.20264
G1 X-32.862 Y-46.079 E40.23258
G1 X-32.968 Y-46.646 E40.26135
G1 X-32.987 Y-46.754 E40.26682
G1 X-33.202 Y-47.307 E40.29643
G1 X-33.249 Y-47.412 E40.30217
G1 X-33.565 Y-47.919 E40.33197
G1 X-34.037 Y-48.446 E40.36727
G1 X-34.496 Y-48.792 E40.39594
G1 X-34.586 Y-48.861 E40.40160
G1 X-35.150 Y-49.141 E40.43302
G1 X-35.809 Y-49.336 E40.46730
G1 X-36.468 Y-49.400 E40.50033
G1 X36.469 Y-49.400 E44.13918
G1 X35.923 Y-49.348 E44.16654
G1 X35.809 Y-49.337 E44.17225
G1 X35.208 Y-49.164 E44.20346
G1 X34.590 Y-48.863 E44.23775
G1 X34.037 Y-48.445 E44.27233
G1 X33.647 Y-48.017 E44.30122
G1 X33.570 Y-47.931 E44.30698
G1 X33.242 Y-47.399 E44.33816
G1 X32.990 Y-46.759 E44.37248
G1 X32.862 Y-46.079 E44.40700
G1 X32.862 Y-45.489 E44.43643
G1 X32.868 Y-45.375 E44.44213
G1 X32.982 Y-44.771 E44.47280
G1 X33.227 Y-44.128 E44.50712
G1 X33.592 Y-43.539 E44.54169
G1 X34.015 Y-43.077 E44.57295
G1 X34.559 Y-42.656 E44.60726
G1 X35.177 Y-42.346 E44.64176
G1 X35.779 Y-42.173 E44.67301
G1 X36.433 Y-42.103 E44.70582
G1 X36.552 Y-42.101 E44.71176
G1 X37.157 Y-42.158 E44.74208
G1 X37.820 Y-42.345 E44.77644
G1 X38.337 Y-42.602 E44.80525
G1 X38.440 Y-42.655 E44.81103
G1 X38.918 Y-43.018 E44.84097
G1 X39.002 Y-43.094 E44.84662
G1 X39.408 Y-43.541 E44.87675
G1 X39.771 Y-44.126 E44.91110
G1 X39.982 Y-44.672 E44.94030
G1 X40.019 Y-44.779 E44.94595
G1 X40.128 Y-45.365 E44.97569
G1 X40.138 Y-45.479 E44.98140
G1 X40.137 Y-46.079 E45.01133
G1 X40.031 Y-46.646 E45.04011
G1 X40.012 Y-46.754 E45.04558
G1 X39.797 Y-47.307 E45.07518
G1 X39.750 Y-47.412 E45.08092
G1 X39.434 Y-47.919 E45.11073
G1 X38.962 Y-48.446 E45.14602
G1 X38.503 Y-48.792 E45.17470
G1 X38.413 Y-48.861 E45.18036
G1 X37.849 Y-49.141 E45.21177
G1 X37.190 Y-49.336 E45.24606
G1 X36.532 Y-49.400 E45.27904
G1 X40.900 Y-49.400 E45.49696
G0 F9000 X39.771 Y-44.128
G0 X38.336 Y-42.603
G0 X36.434 Y-42.103
G0 X32.678 Y-38.801
G1 F1800 X31.432 Y-39.543 E45.56931
G1 X30.101 Y-40.216 E45.64372
G1 X28.744 Y-40.781 E45.71706
G1 X27.351 Y-41.249 E45.79037
G1 X25.927 Y-41.616 E45.86374
G1 X24.480 Y-41.881 E45.93713
G1 X23.018 Y-42.042 E46.01051
G1 X21.512 Y-42.100 E46.08570
G1 X-21.511 Y-42.100 E48.23212
G1 X-22.969 Y-42.048 E48.30491
G1 X-24.383 Y-41.896 E48.37586
G1 X-25.830 Y-41.638 E48.44919
G1 X-27.255 Y-41.277 E48.52253
G1 X-28.651 Y-40.817 E48.59586
G1 X-30.012 Y-40.258 E48.66927
G1 X-31.327 Y-39.603 E48.74256
G1 X-32.580 Y-38.865 E48.81511
G1 X-33.804 Y-38.019 E48.88934
G1 X-34.951 Y-37.099 E48.96270
G1 X-36.030 Y-36.101 E49.03603
G1 X-37.018 Y-35.044 E49.10821
G1 X-37.960 Y-33.883 E49.18280
G1 X-38.801 Y-32.678 E49.25611
G1 X-39.540 Y-31.437 E49.32817
G1 X-40.216 Y-30.101 E49.40287
G1 X-40.781 Y-28.744 E49.47621
G1 X-41.249 Y-27.351 E49.54952
G1 X-41.616 Y-25.927 E49.62289
G1 X-41.881 Y-24.480 E49.69628
G1 X-42.042 Y-23.018 E49.76966
G1 X-42.100 Y-21.512 E49.84485
G1 X-42.100 Y21.511 E51.99127
G1 X-42.048 Y22.969 E52.06406
G1 X-41.896 Y24.383 E52.13501
G1 X-41.638 Y25.830 E52.20834
G1 X-41.277 Y27.255 E52.28168
G1 X-40.817 Y28.651 E52.35501
G1 X-40.258 Y30.012 E52.42842
G1 X-39.603 Y31.327 E52.50171
G1 X-38.865 Y32.580 E52.57426
G1 X-38.019 Y33.804 E52.64849
G1 X-37.099 Y34.951 E52.72185
G1 X-36.101 Y36.030 E52.79518
G1 X-35.044 Y37.018 E52.86736
G1 X-33.883 Y37.960 E52.94195
G1 X-32.678 Y38.801 E53.01526
G1 X-31.437 Y39.540 E53.08732
G1 X-30.101 Y40.216 E53.16202
G1 X-28.744 Y40.781 E53.23536
G1 X-27.351 Y41.249 E53.30867
G1 X-25.927 Y41.616 E53.38204
G1 X-24.480 Y41.881 E53.45543
G1 X-23.018 Y42.042 E53.52881
G1 X-21.512 Y42.100 E53.60400
G1 X21.511 Y42.100 E55.75043
G1 X22.969 Y42.048 E55.82321
G1 X24.383 Y41.896 E55.89416
G1 X25.830 Y41.638 E55.96749
G1 X27.255 Y41.277 E56.04083
G1 X28.651 Y40.817 E56.11416
G1 X30.012 Y40.258 E56.18757
G1 X31.327 Y39.603 E56.26086
G1 X32.580 Y38.865 E56.33341
G1 X33.804 Y38.019 E56.40764
G1 X34.951 Y37.099 E56.48100
G1 X36.030 Y36.101 E56.55433
G1 X37.018 Y35.044 E56.62651
G1 X37.960 Y33.883 E56.70110
G1 X38.801 Y32.678 E56.77441
G1 X39.540 Y31.437 E56.84647
G1 X40.216 Y30.101 E56.92117
G1 X40.781 Y28.744 E56.99451
G1 X41.249 Y27.351 E57.06782
G1 X41.616 Y25.927 E57.14119
G1 X41.881 Y24.480 E57.21458
G1 X42.042 Y23.018 E57.28796
G1 X42.100 Y21.512 E57.36315
G1 X42.100 Y-21.511 E59.50958
G1 X42.048 Y-22.969 E59.58236
G1 X41.896 Y-24.383 E59.65331
G1 X41.638 Y-25.830 E59.72664
G1 X41.277 Y-27.255 E59.79998
G1 X40.817 Y-28.651 E59.87331
G1 X40.258 Y-30.012 E59.94672
G1 X39.603 Y-31.327 E60.02001
G1 X38.865 Y-32.580 E60.09256
G1 X38.019 Y-33.804 E60.16679
G1 X37.099 Y-34.951 E60.24015
G1 X36.101 Y-36.030 E60.31348
G1 X35.042 Y-37.020 E60.38580
G1 X33.883 Y-37.960 E60.46025
G1 X32.678 Y-38.801 E60.53356
G0 F9000 X36.100 Y-36.030
G0 X38.864 Y-32.580
G0 X43.899 Y-26.480
G1 F1800 X43.539 Y-25.993 E60.56378
G1 X43.304 Y-25.438 E60.59385
G1 X43.208 Y-24.897 E60.62126
G1 X43.202 Y-24.811 E60.62556
G1 X43.236 Y-24.238 E60.65420
G1 X43.412 Y-23.659 E60.68439
G1 X43.717 Y-23.137 E60.71455
G1 X44.133 Y-22.699 E60.74469
G1 X44.640 Y-22.368 E60.77490
G1 X45.208 Y-22.164 E60.80501
G1 X45.808 Y-22.096 E60.83513
G1 X46.409 Y-22.168 E60.86533
G1 X46.976 Y-22.376 E60.89546
G1 X47.479 Y-22.710 E60.92559
G1 X47.859 Y-23.112 E60.95318
G1 X47.911 Y-23.181 E60.95749
G1 X48.193 Y-23.676 E60.98592
G1 X48.362 Y-24.238 E61.01519
G1 X48.399 Y-24.859 E61.04623
G1 X48.291 Y-25.455 E61.07645
G1 X48.050 Y-26.010 E61.10664
G1 X47.686 Y-26.494 E61.13685
G1 X47.223 Y-26.879 E61.16689
G1 X46.683 Y-27.149 E61.19701
G1 X46.112 Y-27.284 E61.22629
G1 X45.508 Y-27.287 E61.25642
G1 X44.917 Y-27.150 E61.28669
G1 X44.361 Y-26.870 E61.31774
G1 X43.899 Y-26.480 E61.34791
G0 F9000 X43.202 Y-24.810
G0 X43.718 Y-23.138
G0 X45.508 Y22.112
G1 F1800 X44.917 Y22.249 E61.37818
G1 X44.361 Y22.529 E61.40923
G1 X43.899 Y22.919 E61.43940
G1 X43.539 Y23.407 E61.46965
G1 X43.304 Y23.961 E61.49967
G1 X43.208 Y24.502 E61.52709
G1 X43.202 Y24.588 E61.53139
G1 X43.236 Y25.161 E61.56002
G1 X43.412 Y25.740 E61.59022
G1 X43.717 Y26.262 E61.62038
G1 X44.133 Y26.700 E61.65052
G1 X44.640 Y27.031 E61.68072
G1 X45.207 Y27.235 E61.71079
G1 X45.808 Y27.304 E61.74097
G1 X46.410 Y27.231 E61.77122
G1 X46.976 Y27.023 E61.80131
G1 X47.479 Y26.689 E61.83143
G1 X47.859 Y26.287 E61.85903
G1 X47.911 Y26.218 E61.86334
G1 X48.193 Y25.723 E61.89176
G1 X48.362 Y25.161 E61.92104
G1 X48.399 Y24.540 E61.95207
G1 X48.291 Y23.943 E61.98234
G1 X48.050 Y23.390 E62.01244
G1 X47.687 Y22.906 E62.04262
G1 X47.223 Y22.520 E62.07273
G1 X46.683 Y22.250 E62.10285
G1 X46.112 Y22.115 E62.13213
G1 X45.508 Y22.112 E62.16226
G0 F9000 X42.041 Y23.018
G0 X41.248 Y27.350
G0 X39.541 Y31.435
G0 X37.017 Y35.043
G0 X33.804 Y38.019
G0 X30.011 Y40.257
G0 X25.830 Y41.637
G0 X21.510 Y42.100
G0 X-23.018 Y42.041
G0 X-27.350 Y41.248
G0 X-31.435 Y39.541
G0 X-35.043 Y37.017
G0 X-38.019 Y33.804
G0 X-40.257 Y30.011
G0 X-41.637 Y25.830
G0 X-43.200 Y24.540
G1 F1800 X-43.308 Y23.943 E62.19253
G1 X-43.549 Y23.390 E62.22262
G1 X-43.912 Y22.906 E62.25281
G1 X-44.376 Y22.520 E62.28292
G1 X-44.916 Y22.250 E62.31304
G1 X-45.487 Y22.115 E62.34231
G1 X-46.091 Y22.112 E62.37245
G1 X-46.682 Y22.249 E62.40271
G1 X-47.238 Y22.529 E62.43377
G1 X-47.700 Y22.919 E62.46394
G1 X-48.060 Y23.407 E62.49419
G1 X-48.295 Y23.961 E62.52421
G1 X-48.391 Y24.502 E62.55163
G1 X-48.397 Y24.588 E62.55593
G1 X-48.363 Y25.161 E62.58456
G1 X-48.187 Y25.740 E62.61476
G1 X-47.882 Y26.262 E62.64492
G1 X-47.466 Y26.700 E62.67505
G1 X-46.959 Y27.031 E62.70526
G1 X-46.392 Y27.235 E62.73533
G1 X-45.790 Y27.304 E62.76556
G1 X-45.189 Y27.231 E62.79576
G1 X-44.623 Y27.023 E62.82584
G1 X-44.120 Y26.689 E62.85597
G1 X-43.740 Y26.287 E62.88357
G1 X-43.688 Y26.218 E62.88788
G1 X-43.406 Y25.723 E62.91630
G1 X-43.237 Y25.161 E62.94558
G1 X-43.200 Y24.540 E62.97661
G0 F9000 X-45.790 Y-22.096
G1 F1800 X-45.190 Y-22.168 E63.00676
G1 X-44.623 Y-22.376 E63.03689
G1 X-44.120 Y-22.710 E63.06702
G1 X-43.740 Y-23.112 E63.09462
G1 X-43.688 Y-23.181 E63.09893
G1 X-43.406 Y-23.676 E63.12735
G1 X-43.237 Y-24.238 E63.15663
G1 X-43.200 Y-24.859 E63.18766
G1 X-43.308 Y-25.455 E63.21788
G1 X-43.549 Y-26.010 E63.24807
G1 X-43.913 Y-26.494 E63.27828
G1 X-44.376 Y-26.879 E63.30832
G1 X-44.916 Y-27.149 E63.33844
G1 X-45.487 Y-27.284 E63.36772
G1 X-46.091 Y-27.287 E63.39785
G1 X-46.682 Y-27.150 E63.42812
G1 X-47.238 Y-26.870 E63.45918
G1 X-47.700 Y-26.480 E63.48934
G1 X-48.060 Y-25.993 E63.51955
G1 X-48.295 Y-25.438 E63.54962
G1 X-48.391 Y-24.897 E63.57704
G1 X-48.397 Y-24.811 E63.58134
G1 X-48.363 Y-24.238 E63.60997
G1 X-48.187 Y-23.659 E63.64017
G1 X-47.882 Y-23.137 E63.67033
G1 X-47.466 Y-22.699 E63.70046
G1 X-46.959 Y-22.368 E63.73067
G1 X-46.391 Y-22.164 E63.76078
G1 X-45.790 Y-22.096 E63.79096
G0 F9000 X-45.791 Y-22.499
;TYPE:WALL-OUTER
G1 F1800 X-45.284 Y-22.559 E63.81643
G1 X-44.805 Y-22.735 E63.84189
G1 X-44.379 Y-23.018 E63.86740
G1 X-44.023 Y-23.401 E63.89349
G1 X-43.776 Y-23.835 E63.91840
G1 X-43.634 Y-24.309 E63.94309
G1 X-43.602 Y-24.835 E63.96938
G1 X-43.693 Y-25.338 E63.99488
G1 X-43.897 Y-25.807 E64.02040
G1 X-44.204 Y-26.216 E64.04591
G1 X-44.596 Y-26.542 E64.07135
G1 X-45.053 Y-26.770 E64.09683
G1 X-45.535 Y-26.884 E64.12154
G1 X-46.046 Y-26.887 E64.14703
G1 X-46.545 Y-26.771 E64.17259
G1 X-47.016 Y-26.534 E64.19890
G1 X-47.406 Y-26.205 E64.22435
G1 X-47.710 Y-25.794 E64.24986
G1 X-47.909 Y-25.323 E64.27537
G1 X-47.994 Y-24.848 E64.29944
G1 X-47.996 Y-24.810 E64.30134
G1 X-47.966 Y-24.309 E64.32638
G1 X-47.818 Y-23.820 E64.35187
G1 X-47.560 Y-23.379 E64.37736
G1 X-47.208 Y-23.008 E64.40288
G1 X-46.780 Y-22.729 E64.42836
G1 X-46.300 Y-22.556 E64.45382
G1 X-45.791 Y-22.499 E64.47937
G0 F9000 X-45.824 Y-22.201
G0 X-41.939 Y-23.024
G0 X-41.643 Y-22.989
G1 F1800 X-41.700 Y-21.504 E64.55351
G1 X-41.700 Y21.504 E66.69919
G1 X-41.649 Y22.940 E66.77088
G1 X-41.500 Y24.326 E66.84043
G1 X-41.247 Y25.746 E66.91239
G1 X-40.893 Y27.143 E66.98428
G1 X-40.442 Y28.512 E67.05620
G1 X-39.893 Y29.847 E67.12821
G1 X-39.251 Y31.136 E67.20005
G1 X-38.522 Y32.374 E67.27173
G1 X-37.698 Y33.565 E67.34398
G1 X-36.796 Y34.690 E67.41592
G1 X-35.817 Y35.748 E67.48784
G1 X-34.728 Y36.765 E67.56218
